<?xml version="1.0" encoding="UTF-8"?>
<map version="1.10" tiledversion="1.12.2" orientation="orthogonal" renderorder="right-down" width="19" height="15" tilewidth="48" tileheight="48" infinite="0" nextlayerid="11" nextobjectid="98">
 <properties>
  <property name="level_type" value="indoor"/>
 </properties>
 <tileset firstgid="1" source="tilesets/Inside_A5.tsx"/>
 <tileset firstgid="129" source="tilesets/Inside_A2.tsx"/>
 <tileset firstgid="369" source="tilesets/Inside_C.tsx"/>
 <tileset firstgid="641" source="tilesets/Outside_B.tsx"/>
 <tileset firstgid="897" source="tilesets/Inside_B.tsx"/>
 <layer id="1" name="background" width="19" height="15">
  <data encoding="csv">
4,4,4,4,4,4,4,4,4,4,4,4,4,4,4,4,4,4,4,
4,4,4,4,4,4,4,4,4,4,4,4,4,4,4,4,4,4,4,
4,35,35,35,35,35,35,35,35,35,35,35,35,35,35,35,35,35,4,
4,35,35,35,35,35,35,35,35,35,35,35,35,35,35,35,35,35,4,
4,35,35,35,35,35,35,35,35,35,35,35,35,35,35,35,35,35,4,
4,35,35,35,35,35,35,35,278,278,278,35,35,35,35,35,35,35,4,
4,35,35,35,35,35,35,35,278,278,278,35,35,35,35,35,35,35,4,
4,35,35,35,35,35,35,35,81,82,83,35,35,35,35,35,35,35,4,
4,35,35,35,35,35,35,35,81,82,83,35,35,35,35,35,35,35,4,
4,35,35,35,35,35,35,35,293,278,294,35,35,35,35,35,35,35,4,
4,4,35,35,35,35,35,35,278,278,278,35,35,35,35,35,35,4,4,
4,4,4,35,35,35,35,35,278,278,278,35,35,35,35,35,4,4,4,
4,4,4,35,35,35,35,35,278,278,278,35,35,35,35,35,4,4,4,
4,4,4,35,35,35,35,35,278,278,278,35,35,35,35,35,4,4,4,
4,4,4,35,35,35,35,35,309,278,310,35,35,35,35,35,4,4,4
</data>
 </layer>
 <layer id="2" name="bricks" width="19" height="15">
  <data encoding="csv">
0,0,0,0,0,0,0,0,0,0,0,0,0,0,0,0,0,0,0,
0,2684355166,2684355166,2684355166,2684355166,2684355166,2684355166,2684355166,2684355166,2684355166,2684355166,2684355166,2684355166,2684355166,2684355166,2684355166,2684355166,2684355166,0,
606,0,0,0,0,0,0,0,0,0,0,0,0,0,0,0,0,0,3221226078,
606,0,0,0,0,0,0,0,0,0,0,0,0,0,0,0,0,0,3221226078,
606,0,0,0,0,0,0,0,0,0,0,0,0,0,0,0,0,0,3221226078,
606,0,0,0,0,0,0,0,0,0,0,0,0,0,0,0,0,0,3221226078,
606,0,0,0,0,0,0,0,0,0,0,0,0,0,0,0,0,0,3221226078,
606,0,0,0,0,0,0,0,0,0,0,0,0,0,0,0,0,0,3221226078,
606,0,0,0,0,0,0,0,0,0,0,0,0,0,0,0,0,0,3221226078,
606,2684355164,0,0,0,0,0,0,0,0,0,0,0,0,0,0,0,2684355164,3221226078,
0,606,2684355164,0,0,0,0,0,0,0,0,0,0,0,0,0,2684355164,3221226078,0,
0,0,606,0,0,0,0,0,0,0,0,0,0,0,0,0,3221226078,0,0,
0,0,606,0,0,0,0,0,0,0,0,0,0,0,0,0,3221226078,0,0,
0,0,606,0,0,0,0,0,0,0,0,0,0,0,0,0,3221226078,0,0,
0,0,606,0,0,0,0,0,0,0,0,0,0,0,0,0,3221226078,0,0
</data>
 </layer>
 <layer id="3" name="decoration" width="19" height="15">
  <data encoding="csv">
0,0,740,2684355357,2684355341,0,964,911,379,395,379,911,964,0,0,0,740,0,0,
0,0,756,0,0,0,980,927,0,0,0,927,980,0,0,0,756,0,0,
0,0,0,0,0,0,0,0,0,0,0,0,0,0,0,0,0,0,0,
0,0,0,0,0,0,0,0,0,0,0,0,0,0,0,0,0,0,0,
0,0,0,0,0,0,0,0,0,0,0,0,0,0,0,0,0,0,0,
0,0,0,0,0,0,0,0,0,0,0,0,0,0,0,0,0,0,0,
0,0,0,0,0,0,0,0,0,0,0,0,0,0,0,0,0,0,0,
0,0,0,0,0,0,0,0,0,0,0,0,0,0,0,0,0,0,0,
0,0,0,0,0,0,0,0,0,0,0,0,0,0,0,0,0,0,0,
0,0,0,0,0,0,0,0,0,0,0,0,0,0,0,0,0,0,0,
0,0,0,0,0,0,0,0,0,0,0,0,0,0,0,0,0,0,0,
0,784,0,0,0,0,0,0,0,0,0,0,0,0,0,0,0,0,0,
0,0,0,0,0,0,0,0,0,0,0,0,0,0,0,0,0,781,0,
0,0,0,0,0,0,0,0,0,0,0,0,0,0,0,0,0,797,0,
0,0,0,0,0,0,0,0,0,0,0,0,0,0,0,0,0,0,0
</data>
 </layer>
 <objectgroup id="8" name="collision">
  <object id="26" x="0" y="528" width="144" height="192"/>
  <object id="27" x="0" y="480" width="96" height="48"/>
  <object id="28" x="0" y="0" width="48" height="480"/>
  <object id="29" x="48" y="0" width="816" height="96"/>
  <object id="30" x="864" y="0" width="48" height="480"/>
  <object id="31" x="816" y="480" width="96" height="240"/>
  <object id="32" x="768" y="528" width="48" height="192"/>
  <object id="33" x="96" y="514" width="48" height="14"/>
  <object id="34" x="48" y="466" width="48" height="14"/>
  <object id="35" x="768" y="514" width="48" height="14"/>
  <object id="36" x="816" y="466" width="48" height="14"/>
  <object id="74" x="383" y="239" width="1" height="193"/>
  <object id="75" x="384" y="239" width="145" height="1"/>
  <object id="76" x="528" y="240" width="1" height="192"/>
  <object id="78" x="343" y="644" width="35" height="28"/>
  <object id="79" x="535" y="644" width="35" height="28"/>
  <object id="80" x="535" y="404" width="35" height="28"/>
  <object id="81" x="343" y="404" width="35" height="28"/>
  <object id="82" x="151" y="260" width="35" height="28"/>
  <object id="83" x="727" y="260" width="35" height="28"/>
  <object id="84" x="412" y="293" width="89" height="39"/>
  <object id="85" x="48" y="96" width="48" height="48"/>
  <object id="86" x="167" y="96" width="96" height="48"/>
  <object id="87" x="388" y="120" width="39" height="24"/>
  <object id="88" x="432" y="120" width="48" height="24"/>
  <object id="89" x="484" y="120" width="40" height="24"/>
  <object id="90" x="648" y="96" width="95" height="48"/>
  <object id="91" x="816" y="96" width="48" height="48"/>
 </objectgroup>
 <objectgroup id="5" name="triggers">
  <object id="1" name="level_trigger" x="144" y="720" width="624" height="48">
   <properties>
    <property name="level" value="oldworld"/>
   </properties>
  </object>
  <object id="2" name="player_spawn" x="432" y="646" width="48" height="72">
   <properties>
    <property name="level" value="oldworld"/>
   </properties>
  </object>
  <object id="94" name="npc_spawn" x="432" y="264" width="48" height="72">
   <properties>
    <property name="direction" value="down"/>
    <property name="npc_id" value="king"/>
    <property name="spawn_id" value="king_start"/>
   </properties>
  </object>
  <object id="95" name="npc_spawn" x="288" y="396" width="48" height="72">
   <properties>
    <property name="direction" value="down"/>
    <property name="npc_id" value="father"/>
    <property name="spawn_id" value="father_start"/>
   </properties>
  </object>
  <object id="96" name="npc_spawn" x="576" y="396" width="48" height="72">
   <properties>
    <property name="direction" value="down"/>
    <property name="npc_id" value="michael"/>
    <property name="spawn_id" value="michael_start"/>
   </properties>
  </object>
  <object id="97" name="player_spawn" x="432" y="586" width="48" height="72">
   <properties>
    <property name="level" value="unknown"/>
   </properties>
  </object>
 </objectgroup>
 <objectgroup id="9" name="renderables">
  <object id="37" gid="1070" x="336" y="672" width="48" height="48"/>
  <object id="38" gid="1054" x="336" y="624" width="48" height="48"/>
  <object id="39" gid="1070" x="528" y="672" width="48" height="48"/>
  <object id="40" gid="1054" x="528" y="624" width="48" height="48"/>
  <object id="41" gid="1070" x="336" y="432" width="48" height="48"/>
  <object id="42" gid="1054" x="336" y="384" width="48" height="48"/>
  <object id="43" gid="1070" x="528" y="432" width="48" height="48"/>
  <object id="44" gid="1054" x="528" y="384" width="48" height="48"/>
  <object id="45" gid="1070" x="720" y="288" width="48" height="48"/>
  <object id="46" gid="1054" x="720" y="240" width="48" height="48"/>
  <object id="47" gid="1070" x="144" y="288" width="48" height="48"/>
  <object id="48" gid="1054" x="144" y="240" width="48" height="48"/>
  <object id="49" gid="1019" x="384" y="336" width="48" height="48"/>
  <object id="50" gid="1020" x="432" y="336" width="48" height="48"/>
  <object id="51" gid="1021" x="480" y="336" width="48" height="48"/>
  <object id="52" gid="1003" x="384" y="288" width="48" height="48"/>
  <object id="53" gid="1004" x="432" y="288" width="48" height="48"/>
  <object id="54" gid="1005" x="480" y="288" width="48" height="48"/>
  <object id="55" gid="1012" x="48" y="144" width="48" height="48"/>
  <object id="56" gid="996" x="48" y="96" width="48" height="48"/>
  <object id="57" gid="1046" x="816" y="144" width="48" height="48"/>
  <object id="58" gid="1030" x="816" y="96" width="48" height="48"/>
  <object id="59" gid="1142" x="624" y="144" width="48" height="48"/>
  <object id="60" gid="1143" x="672" y="144" width="48" height="48"/>
  <object id="61" gid="1144" x="720" y="144" width="48" height="48"/>
  <object id="62" gid="1126" x="624" y="96" width="48" height="48"/>
  <object id="63" gid="1127" x="672" y="96" width="48" height="48"/>
  <object id="64" gid="1128" x="720" y="96" width="48" height="48"/>
  <object id="65" gid="921" x="144" y="144" width="48" height="48"/>
  <object id="66" gid="922" x="192" y="144" width="48" height="48"/>
  <object id="67" gid="923" x="240" y="144" width="48" height="48"/>
  <object id="68" gid="905" x="144" y="96" width="48" height="48"/>
  <object id="69" gid="906" x="192" y="96" width="48" height="48"/>
  <object id="70" gid="907" x="240" y="96" width="48" height="48"/>
  <object id="71" gid="1050" x="384" y="144" width="48" height="48"/>
  <object id="72" gid="1066" x="480" y="144" width="48" height="48"/>
  <object id="73" gid="1108" x="432" y="144" width="48" height="48"/>
 </objectgroup>
</map>
