<?xml version="1.0" encoding="UTF-8"?>
<map version="1.10" tiledversion="1.12.2" orientation="orthogonal" renderorder="right-down" width="24" height="16" tilewidth="48" tileheight="48" infinite="0" nextlayerid="14" nextobjectid="88">
 <properties>
  <property name="level_type" value="outdoor"/>
 </properties>
 <tileset firstgid="1" source="tilesets/Dungeon_A1.tsx"/>
 <tileset firstgid="193" source="tilesets/Dungeon_A5.tsx"/>
 <tileset firstgid="321" source="tilesets/Inside_A1.tsx"/>
 <tileset firstgid="513" source="tilesets/Inside_A4.tsx"/>
 <tileset firstgid="769" source="tilesets/Inside_C.tsx"/>
 <tileset firstgid="1041" source="tilesets/Dungeon_A2.tsx"/>
 <tileset firstgid="1233" source="tilesets/Dungeon_A4.tsx"/>
 <tileset firstgid="1505" source="tilesets/Inside_B.tsx"/>
 <layer id="5" name="background" width="24" height="16">
  <data encoding="csv">
1442,1473,1473,1473,1473,1441,1442,1473,1473,1473,1473,1441,1442,1473,1473,1473,1473,1441,1442,1473,1473,1473,1473,1441,
1458,1489,1489,1489,1489,1457,1458,1489,1489,1489,1489,1457,1458,1489,1489,1489,1489,1457,1458,1489,1489,1489,1489,1457,
1478,1478,1478,1322,1322,1322,1322,1322,1322,1322,1322,1322,1322,1322,1322,1322,1322,1322,1322,1322,1478,1478,1478,1478,
1478,1478,1322,1322,1322,1322,1322,1322,1322,1322,1322,1322,1322,1322,1322,1322,1322,1322,1322,1322,1322,1478,1478,1478,
1478,1478,1322,1322,1322,1322,1322,1322,1322,1322,1322,1322,1322,1322,1322,1322,1322,1322,1322,1322,1322,1478,1478,1478,
1478,1478,1322,1322,1322,1322,1322,1322,1322,1322,1322,1322,1322,1322,1322,1322,1322,1322,1322,1322,1322,1478,1478,1478,
1478,1478,1322,1322,1322,1322,1322,1322,1322,1322,1322,1322,1322,1322,1322,1322,1322,1322,1322,1322,1322,1322,1322,1322,
1478,1478,1322,1322,1322,1322,1322,1322,1322,1322,1322,1322,1322,1322,1322,1322,1322,1322,1322,1322,1322,1322,1322,1322,
1478,1478,1322,1322,1322,1322,1322,1322,1322,1322,1322,1322,1322,1322,1322,1322,1322,1322,1322,1322,1322,1322,1322,1322,
1478,1478,1322,1322,1322,1322,1322,1322,1322,1322,1322,1322,1322,1322,1322,1322,1322,1322,1322,1322,1322,1322,1322,1322,
1478,1478,1322,1322,1322,1322,1322,1322,1322,1322,1322,1322,1322,1322,1322,1322,1322,1322,1322,1322,1322,1478,1478,1478,
1478,1478,1322,1322,1322,1322,1322,1322,1322,1322,1322,1322,1322,1322,1322,1322,1322,1322,1322,1322,1322,1478,1478,1478,
1478,1478,1322,1322,1322,1322,1322,1322,1322,1322,1322,1322,1322,1322,1322,1322,1322,1322,1322,1322,1322,1478,1478,1478,
1478,1478,1478,1322,1322,1322,1322,1322,1322,1322,1322,1322,1322,1322,1322,1322,1322,1322,1322,1322,1478,1478,1478,1478,
1478,1478,1478,1478,1478,1478,1478,1478,1478,1478,1478,1478,1478,1478,1478,1478,1478,1478,1478,1478,1478,1478,1478,1478,
1478,1478,1478,1478,1478,1478,1478,1478,1478,1478,1478,1478,1478,1478,1478,1478,1478,1478,1478,1478,1478,1478,1478,1478
</data>
 </layer>
 <layer id="7" name="decoration" width="24" height="16">
  <data encoding="csv">
0,0,0,0,0,0,0,0,0,0,0,0,0,0,0,0,0,0,0,0,0,0,0,0,
0,0,0,0,0,0,0,0,0,0,0,0,0,0,0,0,0,0,0,0,0,0,0,0,
0,0,0,1610613742,1610613742,1610613742,1610613742,1610613742,1610613742,1610613742,1610613742,1610613742,1610613742,1610613742,1610613742,1610613742,1610613742,1610613742,1610613742,1610613742,0,0,0,0,
0,0,1610613742,0,0,0,0,0,0,0,0,0,0,0,0,0,0,0,0,0,1610613742,0,0,0,
0,0,3221226478,0,0,0,0,0,0,0,0,0,0,0,0,0,0,0,0,0,1006,0,0,0,
0,0,3221226478,0,0,0,0,0,0,0,0,0,0,0,0,0,0,0,0,0,1006,0,0,0,
0,0,3221226478,0,0,0,0,0,0,0,0,0,0,0,0,0,0,0,0,0,0,1610613742,1610613742,1610613742,
0,0,3221226478,0,0,0,0,0,0,0,0,0,0,0,0,0,0,0,0,0,0,0,0,0,
0,0,3221226478,0,0,0,0,0,0,0,0,0,0,0,0,0,0,0,0,0,0,0,0,0,
0,0,3221226478,0,0,0,0,0,0,0,0,0,0,0,0,0,0,0,0,0,0,2684355566,2684355566,2684355566,
0,0,3221226478,0,0,0,0,0,0,0,0,0,0,0,0,0,0,0,0,0,1006,0,0,0,
0,0,3221226478,0,0,0,0,0,0,0,0,0,0,0,0,0,0,0,0,0,1006,0,0,0,
0,0,2684355566,0,0,0,0,0,0,0,0,0,0,0,0,0,0,0,0,0,2684355566,0,0,0,
0,0,0,2684355566,2684355566,2684355566,2684355566,2684355566,2684355566,2684355566,2684355566,2684355566,2684355566,2684355566,2684355566,2684355566,2684355566,2684355566,2684355566,2684355566,0,0,0,0,
0,0,0,0,0,0,0,0,0,0,0,0,0,0,0,0,0,0,0,0,0,0,0,0,
0,0,0,0,0,0,0,0,0,0,0,0,0,0,0,0,0,0,0,0,0,0,0,0
</data>
 </layer>
 <layer id="9" name="decoartion_2" width="24" height="16">
  <data encoding="csv">
0,0,1610614378,1641,0,0,0,0,1643,1641,0,0,0,0,1641,1643,0,0,0,0,1641,1610614378,0,0,
0,0,812,1610613520,0,0,0,0,780,780,0,0,0,0,781,782,0,0,0,0,812,811,0,0,
0,0,0,1028,0,0,0,0,0,0,0,0,0,0,0,0,0,0,0,2147484676,0,0,0,0,
0,0,1028,3758097418,0,0,0,0,0,0,0,0,0,0,0,0,0,0,0,1610613770,2147484676,0,0,0,
0,0,0,0,0,0,0,0,0,0,0,0,0,0,0,0,0,0,0,0,0,0,0,0,
0,0,0,0,0,0,0,0,0,0,0,0,0,0,0,0,0,0,0,0,0,0,0,0,
0,0,0,0,0,0,0,0,0,0,0,0,0,0,0,0,0,0,0,0,1610613770,0,0,0,
0,0,0,0,0,0,0,0,0,0,0,0,0,0,0,0,0,0,0,0,0,0,0,0,
0,0,0,0,0,0,0,0,0,0,0,0,0,0,0,0,0,0,0,0,0,0,0,0,
0,0,0,0,0,0,0,0,0,0,0,0,0,0,0,0,0,0,0,0,1034,0,0,0,
0,0,0,0,0,0,0,0,0,0,0,0,0,0,0,0,0,0,0,0,0,0,0,0,
0,0,0,0,0,0,0,0,0,0,0,0,0,0,0,0,0,0,0,0,0,0,0,0,
0,0,1073742852,2147484682,0,0,0,0,0,0,0,0,0,0,0,0,0,0,0,1034,3221226500,0,0,0,
0,0,0,1073742852,0,0,0,0,0,0,0,0,0,0,0,0,0,0,0,3221226500,0,0,0,0,
0,0,0,0,0,0,0,0,0,0,0,0,0,0,0,0,0,0,0,0,0,0,0,0,
0,0,0,0,0,0,0,0,0,0,0,0,0,0,0,0,0,0,0,0,0,0,0,0
</data>
 </layer>
 <objectgroup id="11" name="collision">
  <object id="49" x="984" y="288" width="168" height="24"/>
  <object id="50" x="984" y="144" width="24" height="144"/>
  <object id="51" x="936" y="144" width="48" height="24"/>
  <object id="52" x="936" y="96" width="24" height="48"/>
  <object id="53" x="168" y="96" width="768" height="24"/>
  <object id="54" x="144" y="96" height="12"/>
  <object id="55" x="144" y="96" width="24" height="72"/>
  <object id="56" x="96" y="144" width="48" height="24"/>
  <object id="57" x="96" y="168" width="24" height="456"/>
  <object id="58" x="120" y="600" width="48" height="24"/>
  <object id="59" x="144" y="624" width="24" height="48"/>
  <object id="60" x="168" y="648" width="792" height="24"/>
  <object id="61" x="936" y="600" width="24" height="48"/>
  <object id="62" x="960" y="600" width="48" height="24"/>
  <object id="63" x="984" y="456" width="24" height="144"/>
  <object id="64" x="1008" y="456" width="144" height="24"/>
  <object id="65" x="720" y="552" width="96" height="17"/>
  <object id="66" x="865" y="540" width="45" height="35"/>
  <object id="67" x="193" y="540" width="45" height="35"/>
  <object id="68" x="193" y="204" width="45" height="35"/>
  <object id="69" x="865" y="204" width="45" height="35"/>
  <object id="70" x="554" y="375" width="45" height="33"/>
  <object id="71" x="196" y="337" width="40" height="23"/>
  <object id="72" x="247" y="364" width="34" height="20"/>
  <object id="73" x="241" y="555" width="44" height="21"/>
  <object id="74" x="528" y="552" width="96" height="17"/>
  <object id="75" x="336" y="552" width="96" height="17"/>
  <object id="76" x="291" y="163" width="90" height="18"/>
  <object id="77" x="435" y="162" width="42" height="29"/>
  <object id="78" x="530" y="165" width="44" height="25"/>
  <object id="79" x="627" y="162" width="42" height="29"/>
  <object id="80" x="721" y="174" width="16" height="15"/>
  <object id="81" x="731" y="166" width="32" height="23"/>
  <object id="82" x="769" y="174" width="15" height="15"/>
  <object id="83" x="784" y="167" width="22" height="21"/>
 </objectgroup>
 <objectgroup id="10" name="triggers">
  <object id="45" name="level_trigger" x="1152" y="312" width="48" height="144">
   <properties>
    <property name="level" value="newworld"/>
   </properties>
  </object>
  <object id="85" name="player_spawn" x="1101" y="348" width="48" height="72">
   <properties>
    <property name="level" value="newworld"/>
   </properties>
  </object>
 </objectgroup>
 <objectgroup id="12" name="renderables">
  <object id="1" gid="1677" x="192" y="240" width="48" height="48"/>
  <object id="2" gid="1661" x="192" y="192" width="48" height="48"/>
  <object id="3" gid="1677" x="864" y="240" width="48" height="48"/>
  <object id="4" gid="1661" x="864" y="192" width="48" height="48"/>
  <object id="5" gid="1677" x="864" y="576" width="48" height="48"/>
  <object id="6" gid="1661" x="864" y="528" width="48" height="48"/>
  <object id="7" gid="1677" x="192" y="576" width="48" height="48"/>
  <object id="8" gid="1661" x="192" y="528" width="48" height="48"/>
  <object id="9" gid="1675" x="240" y="576" width="48" height="48"/>
  <object id="13" gid="809" x="288" y="192" width="48" height="48"/>
  <object id="14" gid="810" x="336" y="192" width="48" height="48"/>
  <object id="15" gid="842" x="768" y="192" width="48" height="48"/>
  <object id="16" gid="843" x="720" y="192" width="48" height="48"/>
  <object id="22" gid="879" x="432" y="192" width="48" height="48"/>
  <object id="23" gid="863" x="432" y="144" width="48" height="48"/>
  <object id="24" gid="880" x="624" y="192" width="48" height="48"/>
  <object id="25" gid="864" x="624" y="144" width="48" height="48"/>
  <object id="26" gid="814" x="528" y="192" width="48" height="48"/>
  <object id="27" gid="1745" x="336" y="576" width="48" height="48"/>
  <object id="28" gid="1745" x="384" y="576" width="48" height="48"/>
  <object id="29" gid="1746" x="768" y="576" width="48" height="48"/>
  <object id="30" gid="1745" x="720" y="576" width="48" height="48"/>
  <object id="31" gid="1749" x="528" y="576" width="48" height="48"/>
  <object id="32" gid="1745" x="576" y="576" width="48" height="48"/>
  <object id="33" gid="1689" x="240" y="384" width="48" height="48"/>
  <object id="35" gid="1674" x="192" y="360" width="48" height="48"/>
  <object id="42" gid="861" x="552" y="360" width="48" height="48"/>
  <object id="43" gid="877" x="552" y="408" width="48" height="48"/>
 </objectgroup>
 <objectgroup id="13" name="objects">
  <object id="36" gid="777" x="384" y="576" width="48" height="48"/>
  <object id="39" gid="807" x="348" y="564" width="48" height="48"/>
  <object id="86" gid="961" x="576" y="576" width="48" height="48"/>
  <object id="87" gid="968" x="720" y="564" width="48" height="48"/>
 </objectgroup>
</map>
