<?xml version="1.0" encoding="UTF-8"?>
<map version="1.10" tiledversion="1.12.2" orientation="orthogonal" renderorder="right-down" width="20" height="15" tilewidth="48" tileheight="48" infinite="0" nextlayerid="12" nextobjectid="116">
 <properties>
  <property name="level_type" value="indoor"/>
 </properties>
 <tileset firstgid="1" source="tilesets/Dungeon_A1.tsx"/>
 <tileset firstgid="193" source="tilesets/Inside_A2.tsx"/>
 <tileset firstgid="433" source="tilesets/Inside_A5.tsx"/>
 <tileset firstgid="561" source="tilesets/Inside_B.tsx"/>
 <tileset firstgid="817" source="tilesets/Inside_C.tsx"/>
 <tileset firstgid="1089" source="tilesets/SF_Inside_C.tsx"/>
 <layer id="1" name="background" width="20" height="15">
  <data encoding="csv">
405,405,405,405,405,405,405,405,405,405,405,405,405,405,405,405,405,405,405,405,
405,405,407,407,407,407,407,407,407,407,407,407,407,407,407,407,407,407,405,405,
405,409,471,471,471,471,471,471,471,471,471,471,471,471,471,471,471,471,406,405,
405,409,471,471,471,471,471,471,471,471,471,471,471,471,471,471,471,471,406,405,
405,409,471,471,471,471,471,471,471,471,471,471,471,471,471,471,471,471,406,405,
405,409,471,471,471,471,471,471,471,471,471,471,471,471,471,471,471,471,406,405,
405,409,471,471,471,471,471,471,471,471,471,471,471,471,471,471,471,471,406,405,
405,409,471,471,471,471,471,471,471,471,471,471,471,471,471,471,471,471,406,405,
405,409,471,471,471,471,471,471,471,471,471,471,471,471,471,471,471,471,406,405,
405,409,471,471,471,471,471,471,471,471,471,471,471,471,471,471,471,471,406,405,
405,409,471,471,471,471,471,471,471,471,471,471,471,471,471,471,471,471,406,405,
405,409,471,471,471,471,471,471,471,471,471,471,471,471,471,471,471,471,406,405,
405,409,471,471,471,471,471,471,471,471,471,471,471,471,471,471,471,471,406,405,
405,405,408,408,408,408,408,408,364,471,471,363,408,408,408,408,408,408,405,405,
405,405,405,405,405,405,405,405,409,471,471,406,405,405,405,405,405,405,405,405
</data>
 </layer>
 <layer id="3" name="decoration" width="20" height="15">
  <data encoding="csv">
0,0,627,655,639,640,656,626,1610613561,637,638,1610613561,626,653,633,634,654,627,0,0,
0,0,643,0,0,0,0,642,0,0,0,0,642,0,649,650,0,643,0,0,
0,0,0,0,0,0,0,0,0,0,0,0,0,0,0,0,0,0,0,0,
0,0,0,410,412,412,412,412,412,411,0,0,0,359,386,386,360,0,0,0,
0,0,0,414,428,428,428,428,428,413,0,0,0,385,389,389,387,0,0,0,
0,0,0,414,428,428,428,428,428,413,0,0,0,385,389,389,387,0,0,0,
0,0,0,426,429,429,429,429,429,427,0,0,0,385,389,389,387,0,0,0,
0,0,0,0,0,0,0,0,0,0,0,0,0,385,389,389,387,0,0,0,
0,0,0,0,0,0,0,0,0,0,0,0,0,385,389,389,387,0,0,0,
0,0,0,0,0,0,0,0,0,0,0,0,0,375,388,388,376,0,0,0,
0,0,0,0,0,0,0,0,0,0,0,0,0,0,0,0,0,0,0,0,
0,0,0,0,0,0,0,0,0,0,0,0,0,0,0,0,0,0,0,0,
0,0,0,0,0,0,0,0,0,0,0,0,0,0,0,0,0,0,0,0,
0,0,0,0,0,0,0,0,0,0,0,0,0,0,0,0,0,0,0,0,
0,0,0,0,0,0,0,0,0,0,0,0,0,0,0,0,0,0,0,0
</data>
 </layer>
 <objectgroup id="10" name="collision">
  <object id="62" x="0" y="0" width="96" height="780"/>
  <object id="63" x="96" y="624" width="336" height="156"/>
  <object id="64" x="528" y="624" width="336" height="156"/>
  <object id="65" x="864" y="0" width="96" height="780"/>
  <object id="67" x="96" y="0" width="768" height="96"/>
  <object id="70" x="162" y="537" width="60" height="39"/>
  <object id="71" x="145" y="537" width="16" height="34"/>
  <object id="72" x="346" y="544" width="28" height="20"/>
  <object id="73" x="295" y="500" width="33" height="24"/>
  <object id="74" x="253" y="433" width="24" height="30"/>
  <object id="75" x="299" y="393" width="24" height="30"/>
  <object id="76" x="198" y="388" width="29" height="41"/>
  <object id="77" x="770" y="534" width="45" height="42"/>
  <object id="78" x="736" y="416" width="16" height="13"/>
  <object id="79" x="690" y="414" width="13" height="7"/>
  <object id="80" x="694" y="406" width="5" height="8"/>
  <object id="81" x="737" y="310" width="17" height="21"/>
  <object id="82" x="728" y="303" width="19" height="19"/>
  <object id="83" x="747" y="297" width="12" height="20"/>
  <object id="85" x="672" y="169" width="96" height="71"/>
  <object id="86" x="775" y="160" width="32" height="31"/>
  <object id="87" x="625" y="169" width="46" height="23"/>
  <object id="88" x="781" y="111" width="21" height="32"/>
  <object id="89" x="777" y="114" width="29" height="13"/>
  <object id="91" x="823" y="114" width="28" height="13"/>
  <object id="92" x="827" y="132" width="20" height="11"/>
  <object id="93" x="824" y="127" width="26" height="6"/>
  <object id="94" x="245" y="304" width="36" height="18"/>
  <object id="95" x="201" y="259" width="28" height="20"/>
  <object id="96" x="144" y="259" width="48" height="29"/>
  <object id="97" x="288" y="262" width="96" height="19"/>
  <object id="98" x="436" y="267" width="39" height="21"/>
  <object id="100" x="240" y="215" width="48" height="18"/>
  <object id="101" x="143" y="146" width="49" height="41"/>
  <object id="102" x="245" y="147" width="38" height="23"/>
  <object id="103" x="293" y="168" width="37" height="22"/>
  <object id="104" x="384" y="162" width="96" height="30"/>
  <object id="105" x="144" y="84" width="192" height="60"/>
  <object id="106" x="301" y="492" width="22" height="8"/>
  <object id="107" x="759" y="298" width="2" height="9"/>
  <object id="108" x="746" y="294" width="10" height="3"/>
  <object id="109" x="743" y="297" width="4" height="6"/>
  <object id="110" x="726" y="302" width="2" height="10"/>
  <object id="111" x="728" y="299" width="15" height="4"/>
  <object id="115" x="432" y="732" width="96" height="48"/>
 </objectgroup>
 <objectgroup id="11" name="triggers">
  <object id="60" name="level_trigger" x="432" y="720" width="96" height="48">
   <properties>
    <property name="level" value="oldworld"/>
   </properties>
  </object>
  <object id="61" name="player_spawn" x="456" y="645" width="48" height="72">
   <properties>
    <property name="level" value="oldworld"/>
   </properties>
  </object>
  <object id="113" name="npc_spawn" x="384" y="144" width="48" height="72">
   <properties>
    <property name="direction" value="up"/>
    <property name="npc_id" value="mage"/>
    <property name="spawn_id" value="mage_start"/>
   </properties>
  </object>
  <object id="114" name="player_spawn" x="456" y="384" width="48" height="72">
   <properties>
    <property name="level" value="unknown"/>
   </properties>
  </object>
 </objectgroup>
 <objectgroup id="8" name="renderables">
  <object id="1" gid="1147" x="768" y="192" width="48" height="48"/>
  <object id="2" gid="1179" x="624" y="192" width="48" height="48"/>
  <object id="3" gid="1174" x="816" y="144" width="48" height="48"/>
  <object id="4" gid="1158" x="816" y="96" width="48" height="48"/>
  <object id="5" gid="1175" x="768" y="144" width="48" height="48"/>
  <object id="6" gid="1159" x="768" y="96" width="48" height="48"/>
  <object id="8" gid="1138" x="336" y="576" width="48" height="48"/>
  <object id="9" gid="1122" x="336" y="528" width="48" height="48"/>
  <object id="12" gid="772" x="144" y="288" width="48" height="48"/>
  <object id="13" gid="770" x="192" y="288" width="48" height="48"/>
  <object id="14" gid="802" x="288" y="288" width="48" height="48"/>
  <object id="15" gid="714" x="432" y="288" width="48" height="48"/>
  <object id="16" gid="801" x="336" y="288" width="48" height="48"/>
  <object id="17" gid="803" x="240" y="240" width="48" height="48"/>
  <object id="18" gid="1064" x="240" y="336" width="48" height="48"/>
  <object id="22" gid="756" x="384" y="192" width="48" height="48"/>
  <object id="23" gid="756" x="432" y="192" width="48" height="48"/>
  <object id="27" gid="997" x="240" y="184" width="48" height="48"/>
  <object id="28" gid="998" x="288" y="204" width="48" height="48"/>
  <object id="31" gid="935" x="192" y="432" width="48" height="48"/>
  <object id="32" gid="930" x="240" y="480" width="48" height="48"/>
  <object id="33" gid="945" x="288" y="432" width="48" height="48"/>
  <object id="34" gid="979" x="288" y="528" width="48" height="48"/>
  <object id="35" gid="1004" x="144" y="576" width="48" height="48"/>
  <object id="36" gid="988" x="144" y="528" width="48" height="48"/>
  <object id="37" gid="1005" x="192" y="576" width="48" height="48"/>
  <object id="38" gid="989" x="192" y="528" width="48" height="48"/>
  <object id="39" gid="924" x="768" y="576" width="48" height="48"/>
  <object id="40" gid="908" x="768" y="528" width="48" height="48"/>
  <object id="41" gid="1145" x="96" y="624" width="48" height="48"/>
  <object id="42" gid="878" x="672" y="432" width="48" height="48"/>
  <object id="43" gid="893" x="720" y="432" width="48" height="48"/>
  <object id="44" gid="977" x="720" y="336" width="48" height="48"/>
  <object id="45" gid="738" x="672" y="240" width="48" height="48"/>
  <object id="46" gid="722" x="672" y="192" width="48" height="48"/>
  <object id="47" gid="739" x="720" y="240" width="48" height="48"/>
  <object id="48" gid="723" x="720" y="192" width="48" height="48"/>
  <object id="50" gid="711" x="144" y="144" width="48" height="48"/>
  <object id="51" gid="695" x="144" y="96" width="48" height="48"/>
  <object id="52" gid="712" x="192" y="144" width="48" height="48"/>
  <object id="53" gid="696" x="192" y="96" width="48" height="48"/>
  <object id="54" gid="679" x="240" y="144" width="48" height="48"/>
  <object id="55" gid="680" x="288" y="144" width="48" height="48"/>
  <object id="56" gid="664" x="288" y="96" width="48" height="48"/>
  <object id="57" gid="663" x="240" y="96" width="48" height="48"/>
 </objectgroup>
 <objectgroup id="9" name="objects">
  <object id="19" gid="1015" x="336" y="276" width="48" height="48"/>
  <object id="24" gid="966" x="384" y="192" width="48" height="48"/>
  <object id="26" gid="961" x="432" y="185" width="48" height="48"/>
  <object id="58" gid="940" x="144" y="144" width="48" height="48"/>
  <object id="59" gid="956" x="144" y="192" width="48" height="48"/>
 </objectgroup>
</map>
