<?xml version="1.0" encoding="UTF-8"?>
<map version="1.10" tiledversion="1.12.2" orientation="orthogonal" renderorder="right-down" width="17" height="13" tilewidth="48" tileheight="48" infinite="0" nextlayerid="7" nextobjectid="79">
 <tileset firstgid="1" source="tilesets/Dungeon_A5.tsx"/>
 <tileset firstgid="129" source="tilesets/Inside_A5.tsx"/>
 <tileset firstgid="257" source="tilesets/Inside_A4.tsx"/>
 <tileset firstgid="513" source="tilesets/Inside_B.tsx"/>
 <tileset firstgid="769" source="tilesets/Inside_A2.tsx"/>
 <tileset firstgid="1009" source="tilesets/Inside_C.tsx"/>
 <layer id="1" name="background" width="17" height="13">
  <data encoding="csv">
129,129,129,129,129,129,129,129,129,129,129,129,129,129,129,129,129,
129,129,129,129,129,129,129,129,129,129,129,129,129,129,129,129,129,
340,340,340,340,340,340,340,340,340,340,340,340,340,340,340,129,129,
340,164,164,164,164,164,164,164,164,164,164,164,164,164,340,129,129,
340,164,164,164,164,164,164,164,164,164,164,164,164,164,340,129,129,
340,164,164,164,164,164,164,164,164,164,164,164,164,164,340,129,129,
340,164,164,164,164,164,164,164,164,164,164,164,164,164,340,129,129,
164,164,164,164,164,164,164,164,164,164,164,164,164,164,340,129,129,
340,164,164,164,164,164,164,164,164,164,164,164,164,164,340,129,129,
340,164,164,164,164,164,164,164,164,164,164,164,164,164,340,129,129,
340,164,164,164,164,164,164,164,164,164,164,164,164,164,340,129,129,
340,164,164,164,164,164,164,164,164,164,164,164,164,164,340,129,129,
340,340,340,340,340,340,340,340,340,340,340,340,340,340,340,129,129
</data>
 </layer>
 <layer id="3" name="decoration" width="17" height="13">
  <data encoding="csv">
0,0,0,0,0,0,0,0,0,0,0,0,0,0,0,0,0,
0,0,0,0,0,0,0,0,0,0,0,0,0,0,0,0,0,
0,605,0,606,589,590,608,0,607,591,592,587,0,0,0,0,0,
0,0,0,0,933,918,918,918,918,918,934,0,0,0,0,0,0,
0,0,0,0,918,918,918,918,918,918,918,0,228,0,0,0,0,
0,0,0,0,918,918,918,918,918,918,918,0,0,0,0,0,0,
0,0,0,0,949,918,918,918,918,918,950,0,0,0,0,0,0,
0,0,0,0,0,0,0,0,0,0,0,0,228,0,0,0,0,
0,0,228,0,0,0,0,0,0,0,0,0,0,0,0,0,0,
0,0,0,0,0,0,0,0,0,228,0,0,0,0,0,0,0,
0,0,0,0,0,0,0,0,0,0,0,0,0,0,0,0,0,
0,0,0,0,0,0,0,0,0,0,0,0,0,0,0,0,0,
0,0,0,0,0,0,0,0,0,0,0,0,0,0,0,0,0
</data>
 </layer>
 <objectgroup id="2" name="collision">
  <object id="44" x="0" y="384" width="48" height="240"/>
  <object id="45" x="0" y="96" width="48" height="240"/>
  <object id="46" x="48" y="576" width="624" height="48"/>
  <object id="47" x="672" y="96" width="48" height="528"/>
  <object id="48" x="48" y="96" width="624" height="48"/>
  <object id="49" x="84" y="552" width="48" height="24"/>
  <object id="50" x="60" y="516" width="48" height="24"/>
  <object id="52" x="108" y="528" width="48" height="24"/>
  <object id="53" x="172" y="520" width="39" height="20"/>
  <object id="54" x="153" y="543" width="39" height="20"/>
  <object id="55" x="196" y="544" width="39" height="20"/>
  <object id="56" x="220" y="532" width="39" height="20"/>
  <object id="57" x="408" y="504" width="96" height="17"/>
  <object id="58" x="551" y="512" width="97" height="28"/>
  <object id="59" x="612" y="441" width="48" height="27"/>
  <object id="60" x="623" y="393" width="31" height="13"/>
  <object id="61" x="577" y="398" width="24" height="17"/>
  <object id="62" x="590" y="352" width="19" height="24"/>
  <object id="63" x="636" y="323" width="25" height="23"/>
  <object id="64" x="577" y="272" width="46" height="18"/>
  <object id="66" x="624" y="270" width="18" height="15"/>
  <object id="67" x="636" y="263" width="30" height="21"/>
  <object id="68" x="589" y="210" width="20" height="22"/>
  <object id="69" x="624" y="139" width="48" height="53"/>
  <object id="70" x="528" y="153" width="48" height="27"/>
  <object id="71" x="446" y="447" width="20" height="24"/>
  <object id="72" x="107" y="399" width="26" height="27"/>
  <object id="73" x="59" y="271" width="49" height="29"/>
  <object id="74" x="48" y="168" width="48" height="72"/>
  <object id="77" x="101" y="158" width="38" height="20"/>
  <object id="78" x="148" y="157" width="41" height="22"/>
 </objectgroup>
 <objectgroup id="4" name="triggers">
  <object id="39" name="level_trigger" x="-48" y="336" width="48" height="48">
   <properties>
    <property name="level" value="house_bandits_hall"/>
   </properties>
  </object>
  <object id="40" name="player_spawn" x="3" y="298" width="48" height="72">
   <properties>
    <property name="level" value="house_bandits_hall"/>
   </properties>
  </object>
 </objectgroup>
 <objectgroup id="5" name="renderables">
  <object id="1" gid="540" x="624" y="192" width="48" height="48"/>
  <object id="2" gid="524" x="624" y="144" width="48" height="48"/>
  <object id="3" gid="546" x="576" y="120" width="48" height="48"/>
  <object id="4" gid="562" x="576" y="168" width="48" height="48"/>
  <object id="5" gid="546" x="96" y="120" width="48" height="48"/>
  <object id="6" gid="562" x="96" y="168" width="48" height="48"/>
  <object id="7" gid="562" x="336" y="168" width="48" height="48"/>
  <object id="8" gid="546" x="336" y="120" width="48" height="48"/>
  <object id="13" gid="1190" x="96" y="192" width="48" height="48"/>
  <object id="14" gid="1185" x="144" y="192" width="48" height="48"/>
  <object id="16" gid="713" x="60" y="540" width="48" height="48"/>
  <object id="17" gid="713" x="84" y="576" width="48" height="48"/>
  <object id="19" gid="714" x="108" y="552" width="48" height="48"/>
  <object id="23" gid="666" x="144" y="564" width="48" height="48"/>
  <object id="24" gid="666" x="168" y="540" width="48" height="48"/>
  <object id="25" gid="665" x="192" y="564" width="48" height="48"/>
  <object id="26" gid="667" x="216" y="552" width="48" height="48"/>
  <object id="28" gid="699" x="60" y="300" width="48" height="48"/>
  <object id="29" gid="754" x="456" y="528" width="48" height="48"/>
  <object id="30" gid="756" x="408" y="528" width="48" height="48"/>
  <object id="32" gid="737" x="600" y="540" width="48" height="48"/>
  <object id="33" gid="738" x="552" y="540" width="48" height="48"/>
  <object id="34" gid="724" x="612" y="468" width="48" height="48"/>
  <object id="35" gid="741" x="528" y="180" width="48" height="48"/>
  <object id="36" gid="1081" x="624" y="288" width="48" height="48"/>
  <object id="37" gid="1049" x="576" y="300" width="48" height="48"/>
  <object id="38" gid="1061" x="624" y="360" width="48" height="48"/>
  <object id="41" gid="1140" x="612" y="420" width="48" height="48"/>
  <object id="43" gid="1122" x="564" y="432" width="48" height="48"/>
  <object id="75" gid="679" x="48" y="192" width="48" height="48"/>
  <object id="76" gid="695" x="48" y="240" width="48" height="48"/>
 </objectgroup>
 <objectgroup id="6" name="objects">
  <object id="15" gid="1063" x="144" y="168" width="48" height="48"/>
 </objectgroup>
</map>
