<?xml version="1.0" encoding="UTF-8"?>
<map version="1.10" tiledversion="1.12.2" orientation="orthogonal" renderorder="right-down" width="24" height="20" tilewidth="48" tileheight="48" infinite="0" nextlayerid="8" nextobjectid="47">
 <properties>
  <property name="level_type" value="outdoor"/>
 </properties>
 <tileset firstgid="1" source="tilesets/Outside_A2.tsx"/>
 <tileset firstgid="225" source="tilesets/Outside_A1.tsx"/>
 <tileset firstgid="449" source="tilesets/Outside_B.tsx"/>
 <layer id="1" name="background" width="24" height="20">
  <data encoding="csv">
434,434,434,434,434,434,434,434,434,434,434,434,434,434,434,434,434,434,434,434,434,434,434,434,
434,434,434,434,434,434,434,434,434,434,434,434,434,434,434,434,434,434,434,434,434,434,434,434,
434,434,434,434,434,434,434,434,434,434,434,434,434,434,434,434,434,434,434,434,434,434,434,434,
434,434,434,434,434,434,434,434,434,434,434,434,434,434,434,434,434,434,434,434,434,434,434,434,
434,434,434,434,434,434,434,434,434,434,434,434,434,434,434,434,434,434,434,434,434,434,434,434,
434,434,434,434,434,434,434,434,434,434,434,434,434,434,434,434,434,434,434,434,434,434,434,434,
434,434,434,434,434,434,434,434,434,434,434,434,434,434,434,434,434,434,434,434,434,434,434,434,
434,434,434,434,434,434,434,434,434,434,434,434,434,434,434,434,434,434,434,434,434,434,434,434,
2,2,2,2,2,2,2,2,2,2,2,2,2,2,2,2,2,2,2,2,2,2,2,2,
2,2,2,2,2,2,2,2,2,2,2,2,2,2,2,2,2,2,2,2,2,2,2,2,
2,2,2,2,2,2,2,2,2,2,2,2,2,2,2,2,2,2,2,2,2,2,2,2,
2,2,2,2,2,2,2,2,2,2,2,2,2,2,2,2,2,2,2,2,2,2,2,2,
2,2,2,2,2,2,2,2,2,2,2,2,2,2,2,2,2,2,2,2,2,2,2,2,
2,2,2,2,2,2,2,2,2,2,2,2,2,2,2,2,2,2,2,2,2,2,2,2,
2,2,2,2,2,2,2,2,2,2,2,2,2,2,2,2,2,2,2,2,2,2,2,2,
2,2,2,2,2,19,193,193,193,193,193,193,193,193,193,193,193,193,193,193,193,193,193,193,
2,2,2,2,2,194,210,210,210,210,210,210,210,210,210,210,210,210,210,210,210,210,210,210,
2,2,2,2,2,35,209,209,209,209,209,209,209,209,209,209,209,209,209,209,209,209,209,209,
2,2,2,2,2,2,2,2,2,2,2,2,2,2,2,2,2,2,2,2,2,2,2,2,
2,2,2,2,2,2,2,2,2,2,2,2,2,2,2,2,2,2,2,2,2,2,2,2
</data>
 </layer>
 <layer id="2" name="decoration" width="24" height="20">
  <data encoding="csv">
0,0,0,0,0,0,0,0,0,0,0,0,0,0,0,0,0,0,0,0,0,0,0,0,
576,0,0,0,0,0,0,0,574,0,0,0,0,0,0,574,0,0,0,0,0,0,0,0,
0,0,0,0,0,0,0,0,0,0,0,0,0,0,0,0,0,0,575,0,0,0,0,0,
0,0,0,576,0,0,0,0,0,0,0,0,575,0,0,0,0,0,0,0,0,0,0,0,
0,0,0,0,0,0,0,574,0,0,0,0,0,0,0,0,0,0,0,0,0,0,576,0,
0,574,0,0,0,0,0,0,0,0,0,0,0,0,0,0,574,0,0,0,0,0,0,0,
0,0,0,0,0,0,0,0,0,0,0,0,0,0,0,0,0,0,0,0,0,0,0,0,
198,198,198,198,198,198,198,198,198,198,198,198,198,198,198,198,198,198,198,198,198,198,198,198,
214,214,214,214,214,214,214,214,214,214,214,214,214,214,214,214,214,214,214,214,214,214,214,214,
0,0,642,0,0,0,0,0,0,641,0,0,0,0,0,643,0,0,0,0,0,641,0,0,
0,0,0,625,627,0,626,0,627,0,0,642,0,627,0,0,641,0,625,626,0,0,625,660,
0,0,0,0,0,0,0,0,0,0,0,0,0,0,628,0,0,0,0,0,643,0,0,0,
642,0,641,0,0,0,660,0,0,628,0,0,0,0,0,0,642,0,0,0,0,0,642,0,
0,0,0,0,643,0,0,642,0,0,0,643,0,0,0,0,625,0,626,0,628,0,0,0,
0,0,643,0,0,0,0,0,0,0,0,641,0,660,0,0,0,0,0,0,0,0,0,641,
641,0,0,0,0,0,0,0,0,0,0,0,0,0,0,0,0,0,0,0,0,0,0,0,
0,0,0,0,0,0,0,0,0,0,0,0,0,0,0,0,0,0,0,0,0,0,0,0,
0,0,0,626,0,0,0,0,0,0,0,0,0,0,0,0,0,0,0,0,0,0,0,0,
643,0,0,0,627,0,0,625,0,0,0,627,0,643,0,0,627,0,625,0,0,0,627,0,
0,660,0,0,0,625,0,0,0,628,0,0,0,0,0,626,0,660,0,0,628,0,0,660
</data>
 </layer>
 <objectgroup id="6" name="collision">
  <object id="13" x="1152" y="0" width="48" height="624"/>
  <object id="14" x="0" y="960" width="1200" height="48"/>
  <object id="16" x="-48" y="0" width="48" height="960"/>
  <object id="18" x="0" y="-48" width="1152" height="48"/>
  <object id="19" x="1068" y="456" width="24" height="24"/>
  <object id="20" x="1116" y="456" width="24" height="24"/>
  <object id="21" x="1056" y="408" width="48" height="48"/>
  <object id="22" x="1104" y="408" width="48" height="48"/>
  <object id="23" x="36" y="468" width="24" height="12"/>
  <object id="24" x="0" y="432" width="96" height="36"/>
  <object id="25" x="12" y="408" width="72" height="24"/>
  <object id="26" x="308" y="718" width="8" height="25"/>
  <object id="27" x="294" y="721" width="36" height="11"/>
  <object id="29" x="194" y="566" width="19" height="19"/>
  <object id="30" x="204" y="560" width="16" height="16"/>
  <object id="31" x="212" y="553" width="16" height="17"/>
  <object id="32" x="220" y="547" width="14" height="15"/>
  <object id="33" x="224" y="564" width="14" height="7"/>
  <object id="36" x="0" y="312" width="1152" height="36"/>
  <object id="44" x="54" y="499" width="35" height="17"/>
 </objectgroup>
 <objectgroup id="7" name="triggers">
  <object id="11" name="level_trigger" x="1152" y="624" width="48" height="336">
   <properties>
    <property name="level" value="newworld"/>
   </properties>
  </object>
  <object id="12" name="player_spawn" x="1101" y="730" width="48" height="72">
   <properties>
    <property name="level" value="newworld"/>
   </properties>
  </object>
  <object id="45" name="npc_spawn" x="120" y="492" width="48" height="72">
   <properties>
    <property name="direction" value="down"/>
    <property name="npc_id" value="courier"/>
    <property name="spawn_id" value="courier_quest"/>
   </properties>
  </object>
  <object id="46" name="player_spawn" x="480" y="538" width="48" height="72">
   <properties>
    <property name="level" value="unknown"/>
   </properties>
  </object>
 </objectgroup>
 <objectgroup id="3" name="renderables">
  <object id="1" gid="646" x="1056" y="480" width="48" height="48"/>
  <object id="2" gid="646" x="1104" y="480" width="48" height="48"/>
  <object id="3" gid="689" x="0" y="480" width="48" height="48"/>
  <object id="4" gid="690" x="48" y="480" width="48" height="48"/>
  <object id="5" gid="673" x="0" y="432" width="48" height="48"/>
  <object id="6" gid="674" x="48" y="432" width="48" height="48"/>
  <object id="7" gid="630" x="1056" y="432" width="48" height="48"/>
  <object id="8" gid="630" x="1104" y="432" width="48" height="48"/>
  <object id="9" gid="594" x="288" y="744" width="48" height="48"/>
  <object id="10" gid="645" x="192" y="588" width="48" height="48"/>
  <object id="37" gid="629" x="48" y="528" width="48" height="48"/>
 </objectgroup>
</map>
