<?xml version="1.0" encoding="UTF-8"?>
<map version="1.10" tiledversion="1.12.2" orientation="orthogonal" renderorder="right-down" width="38" height="26" tilewidth="48" tileheight="48" infinite="0" nextlayerid="8" nextobjectid="387">
 <properties>
  <property name="level_type" value="outdoor"/>
 </properties>
 <tileset firstgid="1" source="tilesets/Outside_A5.tsx"/>
 <tileset firstgid="129" source="tilesets/Outside_A1.tsx"/>
 <tileset firstgid="353" source="tilesets/Outside_A2.tsx"/>
 <tileset firstgid="577" source="tilesets/Outside_A3.tsx"/>
 <tileset firstgid="769" source="tilesets/Outside_C.tsx"/>
 <tileset firstgid="1025" source="tilesets/Outside_A4.tsx"/>
 <tileset firstgid="1297" source="tilesets/Inside_C.tsx"/>
 <tileset firstgid="1569" source="tilesets/Outside_B.tsx"/>
 <tileset firstgid="1825" source="tilesets/Inside_B.tsx"/>
 <layer id="1" name="background" width="38" height="26">
  <data encoding="csv">
338,338,338,338,338,338,338,338,338,338,338,338,338,338,338,338,338,338,338,21,21,21,21,21,21,21,21,21,21,21,21,21,21,21,21,21,21,21,
338,338,338,338,338,338,338,338,338,338,338,338,338,338,338,338,338,338,21,21,21,21,21,21,21,21,21,21,21,21,21,21,21,21,21,21,21,21,
338,338,338,338,338,338,338,338,338,338,338,338,338,338,338,338,338,21,21,21,21,21,21,21,21,21,21,21,21,21,21,21,21,21,21,21,21,21,
338,338,338,338,338,338,338,338,338,338,338,338,338,338,338,338,21,21,21,21,21,21,21,21,21,21,21,21,21,21,21,21,21,21,21,21,21,21,
338,338,338,338,338,338,338,338,338,338,338,338,338,338,21,21,21,21,21,21,21,21,21,21,21,21,21,21,21,21,21,21,21,21,21,21,21,21,
338,338,338,338,338,338,338,338,338,338,338,338,338,21,21,6,6,6,6,6,6,6,6,21,21,21,21,645,645,645,645,645,645,645,645,21,21,21,
338,338,338,338,338,338,338,338,338,338,338,21,21,21,21,7,7,7,7,7,7,7,7,21,21,21,21,725,725,725,725,725,725,725,725,21,21,21,
338,338,338,338,338,338,338,338,338,338,17,17,21,21,21,7,7,7,7,7,7,7,7,21,21,21,21,725,725,725,725,725,725,725,725,21,21,21,
338,338,338,338,338,338,338,338,17,17,17,17,21,21,21,14,14,14,14,14,14,14,14,21,21,21,21,661,661,661,661,661,661,661,661,21,21,21,
338,338,338,338,338,17,17,17,17,17,17,17,21,21,21,21,21,21,546,547,21,21,21,21,21,21,21,21,21,21,546,547,21,21,21,21,21,21,
338,338,17,17,17,17,17,17,17,17,17,17,17,21,21,21,21,21,546,547,21,21,21,21,21,21,21,21,21,21,546,547,21,21,21,21,21,21,
17,17,17,17,17,17,17,17,17,17,17,17,17,21,21,21,21,21,546,547,21,21,21,21,21,21,21,21,21,21,546,547,21,21,21,21,21,21,
545,545,545,545,545,545,545,545,545,545,545,545,545,545,545,545,545,545,562,562,545,545,545,545,545,545,545,545,545,545,562,562,545,545,545,545,545,545,
562,562,562,562,562,562,562,562,562,562,562,562,562,562,562,562,562,562,562,562,562,562,562,562,562,562,562,562,562,562,562,562,562,562,562,562,562,562,
561,561,561,561,561,561,561,561,561,561,561,561,561,562,562,562,562,562,562,562,562,562,562,562,562,561,561,561,561,561,561,561,561,561,561,561,561,561,
17,17,17,17,17,17,17,17,17,17,17,17,17,546,562,562,562,562,562,562,562,562,562,562,547,21,21,21,21,21,21,21,21,21,21,21,21,21,
17,1270,1270,1270,1270,1270,1270,1270,1270,1270,1270,17,17,546,562,562,562,562,562,562,562,562,562,562,547,21,21,21,21,21,21,21,21,21,21,21,21,21,
1270,1287,1287,1287,1287,1287,1287,1287,1287,1287,1287,17,17,546,562,562,562,562,562,562,562,562,562,562,547,21,21,21,21,21,21,21,21,21,21,21,21,21,
1287,1286,1286,1286,1286,1286,1286,1286,1286,1286,1286,17,17,546,562,562,562,562,562,562,562,562,562,562,547,21,21,21,21,21,21,21,21,21,21,21,21,21,
1287,1034,1034,1034,1034,1034,1034,1034,1034,1034,1034,1034,1034,562,562,562,562,562,562,562,562,562,562,562,547,21,21,641,641,641,641,641,641,641,641,641,21,21,
1287,1034,1034,1034,1034,1034,1034,1034,1034,1034,1034,1034,1034,562,562,562,562,562,562,562,562,562,562,562,547,21,21,721,721,721,721,721,721,721,721,721,21,21,
1287,1034,1034,1034,1034,1034,1034,1034,1034,1034,1034,1034,1034,562,562,562,562,562,562,562,562,562,562,562,547,21,21,721,721,721,721,721,721,721,721,721,21,21,
1287,1270,1270,1270,1270,1270,1270,1270,1270,1270,1270,17,17,546,562,562,562,562,562,562,562,562,562,562,547,21,21,657,657,657,657,657,657,657,657,657,21,21,
1286,1287,1287,1287,1287,1287,1287,1287,1287,1287,1287,17,17,546,562,562,562,562,562,562,562,562,562,562,547,21,21,21,21,21,546,562,547,21,21,21,21,21,
17,1286,1286,1286,1286,1286,1286,1286,1286,1286,1286,17,17,546,562,562,562,562,562,562,562,562,562,562,562,545,545,545,545,545,562,562,547,21,21,21,21,21,
17,17,17,17,17,17,17,17,17,17,17,17,17,387,561,561,561,561,561,561,561,561,561,561,561,561,561,561,561,561,561,561,388,21,21,21,21,21
</data>
 </layer>
 <layer id="7" name="decoration_v2" width="38" height="26">
  <data encoding="csv">
0,0,0,0,0,0,0,0,0,0,0,0,0,0,0,0,0,0,325,341,0,0,0,0,0,0,0,0,0,0,0,0,0,0,0,0,0,0,
0,0,0,0,0,0,0,0,0,0,0,0,0,0,0,0,0,325,341,0,0,0,0,0,0,0,0,0,0,0,0,0,0,0,0,0,0,0,
0,0,0,0,0,0,0,0,0,0,0,0,0,0,0,0,0,0,0,0,0,0,0,0,0,0,0,0,0,0,0,0,0,0,0,0,0,0,
0,0,0,0,0,0,0,0,0,0,0,0,0,0,325,0,0,0,0,0,0,0,0,0,0,0,0,0,0,0,0,0,0,0,0,0,0,0,
0,0,0,0,0,0,0,0,0,0,0,0,0,325,341,0,0,0,0,0,0,0,0,0,0,0,0,0,0,0,0,0,0,0,0,0,0,0,
0,0,0,0,0,0,0,0,0,0,0,325,325,341,0,0,0,0,0,0,0,0,0,0,0,0,0,0,0,0,0,0,0,0,0,0,0,0,
0,0,0,0,0,0,0,0,0,0,325,341,341,0,0,0,0,0,0,0,0,0,0,0,0,0,0,0,0,0,0,0,0,0,0,0,0,0,
0,0,0,0,0,0,0,0,325,325,341,0,0,0,0,0,0,0,0,0,0,0,0,0,0,0,0,0,0,0,0,0,0,0,0,0,0,0,
0,0,0,0,0,325,325,325,341,341,0,0,0,0,0,0,0,0,0,0,0,0,0,0,0,0,0,0,0,0,0,0,0,0,0,0,0,0,
0,0,325,325,325,341,341,341,0,0,0,0,0,0,0,0,0,0,0,0,0,0,0,0,0,0,0,0,0,0,0,0,0,0,0,0,0,0,
325,325,341,341,341,0,0,0,0,0,0,0,0,0,0,0,0,0,0,0,0,0,0,0,0,0,0,0,0,0,0,0,0,0,0,0,0,0,
341,341,0,0,0,0,0,0,0,0,0,0,0,0,0,0,0,0,0,0,0,0,0,0,0,0,0,0,0,0,0,0,0,0,0,0,0,0,
0,0,0,0,0,0,0,0,0,0,0,0,0,0,0,0,0,0,0,0,0,0,0,0,0,0,0,0,0,0,0,0,0,0,0,0,0,0,
0,0,0,0,0,0,0,0,0,0,0,0,0,0,0,0,0,0,0,0,0,0,0,0,0,0,0,0,0,0,0,0,0,0,0,0,0,0,
0,0,0,0,0,0,0,0,0,0,0,0,0,0,0,0,0,0,0,0,0,0,0,0,0,0,0,0,0,0,0,0,0,0,0,0,0,0,
0,0,0,0,0,0,0,0,0,0,0,0,0,0,0,0,0,0,0,0,0,0,0,0,0,0,0,0,0,0,0,0,0,0,0,0,0,0,
0,0,0,0,0,0,0,0,0,0,0,0,0,0,0,0,0,0,0,0,0,0,0,0,0,0,0,0,0,0,0,0,0,0,0,0,0,0,
0,0,0,0,0,0,0,0,0,0,0,0,0,0,0,0,0,0,0,0,0,0,0,0,0,0,0,0,0,0,0,0,0,0,0,0,0,0,
0,0,0,0,0,0,0,0,0,0,0,0,0,0,0,0,0,0,0,0,0,0,0,0,0,0,0,0,0,0,0,0,0,0,0,0,0,0,
0,0,0,0,0,0,0,0,0,0,0,0,0,0,0,0,0,0,0,0,0,0,0,0,0,0,0,0,0,0,0,0,0,0,0,0,0,0,
0,0,0,0,0,0,0,0,0,0,0,0,0,0,0,0,0,0,0,0,0,0,0,0,0,0,0,0,0,0,0,0,0,0,0,0,0,0,
0,0,0,0,0,0,0,0,0,0,0,0,0,0,0,0,0,0,0,0,0,0,0,0,0,0,0,0,0,0,0,0,0,0,0,0,0,0,
0,0,0,0,0,0,0,0,0,0,0,0,0,0,0,0,0,0,0,0,0,0,0,0,0,0,0,0,0,0,0,0,0,0,0,0,0,0,
0,0,0,0,0,0,0,0,0,0,0,0,0,0,0,0,0,0,0,0,0,0,0,0,0,0,0,0,0,0,0,0,0,0,0,0,0,0,
0,0,0,0,0,0,0,0,0,0,0,0,0,0,0,0,0,0,0,0,0,0,0,0,0,0,0,0,0,0,0,0,0,0,0,0,0,0,
0,0,0,0,0,0,0,0,0,0,0,0,0,0,0,0,0,0,0,0,0,0,0,0,0,0,0,0,0,0,0,0,0,0,0,0,0,0
</data>
 </layer>
 <layer id="2" name="decoration" width="38" height="26">
  <data encoding="csv">
0,0,0,0,0,0,0,0,0,0,0,0,0,0,0,0,0,0,0,0,0,0,1764,0,0,0,1746,0,1762,0,0,0,0,0,0,0,0,0,
0,0,0,0,152,0,0,0,0,136,0,0,0,0,0,0,0,0,0,1761,0,0,0,0,1748,0,0,0,0,0,0,0,0,1761,0,0,0,0,
0,0,0,0,0,0,0,0,0,0,0,0,0,0,135,777,578,578,578,578,578,578,779,0,0,0,0,830,831,831,831,831,831,831,832,0,0,0,
0,135,0,0,0,0,0,167,0,0,0,0,0,0,0,793,594,594,594,594,594,594,795,0,0,0,0,846,847,847,847,847,847,847,848,0,0,0,
0,0,0,0,0,0,0,0,0,0,168,0,0,0,0,809,810,810,810,810,810,810,811,0,1747,0,1764,862,863,863,863,863,863,863,864,0,0,0,
0,0,0,0,0,0,0,0,0,0,0,0,0,0,0,0,0,0,0,0,0,0,0,0,0,0,0,0,0,0,0,0,0,0,0,0,0,0,
0,0,0,0,0,0,135,0,0,0,0,0,0,1747,0,0,0,0,0,0,0,0,0,0,1763,1746,0,0,0,0,0,0,0,0,0,0,1745,0,
0,0,168,0,0,0,0,0,0,0,0,1764,0,0,0,0,0,0,0,0,0,0,0,0,0,0,0,0,0,0,0,0,0,0,0,1746,0,0,
0,0,0,0,0,0,0,0,0,1761,0,0,0,1746,0,0,0,0,0,0,0,0,0,0,0,0,0,0,0,0,0,0,0,0,0,1748,0,0,
0,0,0,0,0,0,1762,0,0,1745,1763,0,1748,0,0,0,0,0,0,0,0,0,0,0,0,0,0,1748,0,0,0,0,0,0,0,0,0,0,
0,0,1745,0,0,0,0,1748,0,0,0,0,0,0,0,0,0,0,0,0,0,0,0,1763,0,1747,0,0,0,0,0,0,0,0,0,1761,0,0,
1746,0,0,1764,0,1761,0,0,0,0,1762,0,0,0,0,0,1747,0,0,0,0,1764,0,0,0,1745,0,1762,0,0,0,0,1745,0,1762,0,1763,0,
0,0,0,1780,0,0,0,0,0,0,1717,0,0,0,0,0,0,0,0,0,1780,0,0,0,0,0,0,0,0,0,0,1780,0,0,0,0,0,0,
0,0,0,0,0,0,0,1780,0,0,0,0,0,0,0,0,0,0,0,0,0,0,0,0,0,0,0,0,1780,0,0,0,0,0,0,0,1717,0,
1717,0,0,0,0,0,0,0,0,0,0,0,0,0,0,0,0,0,0,0,0,0,0,0,0,0,0,0,0,0,0,0,0,0,0,0,0,0,
873,874,0,1763,0,1747,0,0,1764,0,873,874,1762,0,0,0,0,0,0,0,0,0,0,0,0,1748,1746,0,0,0,1747,1762,0,1745,0,1763,0,0,
889,890,0,0,0,0,0,0,0,0,889,890,0,0,0,0,0,0,0,0,0,0,0,1717,0,0,0,830,831,831,831,831,831,831,831,832,0,1764,
905,906,0,0,0,0,0,0,0,0,905,906,1761,0,0,0,0,0,0,0,0,0,0,0,0,1745,0,846,847,847,847,847,847,847,847,848,0,0,
937,938,0,0,0,0,0,0,0,0,937,938,0,0,0,0,0,0,0,0,0,0,0,0,0,0,1763,862,863,863,863,863,863,863,863,864,0,1747,
0,3221227004,0,0,0,0,0,0,0,0,0,0,0,1780,0,0,0,0,0,0,0,0,0,0,0,1747,0,0,0,0,0,0,0,0,0,0,1761,0,
0,3221227004,0,0,0,0,0,0,0,0,0,0,0,0,0,0,0,0,0,0,0,0,0,0,0,0,0,0,0,0,0,0,0,0,0,0,0,1748,
873,874,0,0,0,0,0,0,0,0,873,874,0,0,0,0,0,0,0,1780,0,0,0,0,0,1764,0,0,0,0,0,0,0,0,0,0,0,0,
889,890,0,0,0,0,0,0,0,0,889,890,0,0,0,0,0,0,0,0,0,0,0,0,0,0,0,0,0,0,0,0,0,0,0,0,0,0,
905,906,0,0,0,0,0,0,0,0,905,906,1746,0,0,0,0,0,0,0,0,0,1780,0,0,1761,0,1762,0,0,0,0,0,0,0,0,0,0,
937,938,0,0,0,0,0,0,0,0,937,938,0,0,0,0,0,0,0,0,0,0,0,0,0,0,0,0,0,0,0,0,0,0,0,0,1748,0,
0,1764,0,0,1763,0,1762,0,1748,0,1761,0,0,0,1717,0,0,0,0,0,0,0,0,0,0,0,0,0,0,0,0,0,1780,0,0,1763,0,0
</data>
 </layer>
 <objectgroup id="6" name="collision">
  <object id="264" x="0" y="1248" width="1824" height="48"/>
  <object id="265" x="1824" y="768" width="48" height="480"/>
  <object id="266" x="1824" y="0" width="48" height="528"/>
  <object id="268" x="0" y="-48" width="1824" height="48"/>
  <object id="269" x="-48" y="0" width="48" height="528"/>
  <object id="270" x="-48" y="768" width="48" height="480"/>
  <object id="271" x="720" y="132" width="168" height="300"/>
  <object id="272" x="888" y="132" width="48" height="300"/>
  <object id="273" x="936" y="132" width="168" height="300"/>
  <object id="274" x="732" y="120" width="360" height="12"/>
  <object id="279" x="1296" y="132" width="168" height="300"/>
  <object id="280" x="1464" y="132" width="48" height="216"/>
  <object id="281" x="1512" y="132" width="168" height="300"/>
  <object id="282" x="1308" y="120" width="360" height="12"/>
  <object id="286" x="1296" y="804" width="192" height="300"/>
  <object id="287" x="1488" y="804" width="48" height="216"/>
  <object id="288" x="1536" y="804" width="192" height="300"/>
  <object id="289" x="1308" y="792" width="408" height="12"/>
  <object id="294" x="1788" y="456" width="24" height="24"/>
  <object id="295" x="1776" y="0" width="48" height="456"/>
  <object id="297" x="1740" y="264" width="24" height="24"/>
  <object id="298" x="1728" y="0" width="48" height="264"/>
  <object id="299" x="1692" y="120" width="24" height="24"/>
  <object id="300" x="1680" y="0" width="48" height="120"/>
  <object id="301" x="1596" y="24" width="24" height="24"/>
  <object id="302" x="1644" y="24" width="24" height="24"/>
  <object id="303" x="1584" y="0" width="96" height="24"/>
  <object id="304" x="48" y="1056" width="456" height="144"/>
  <object id="305" x="24" y="1176" width="24" height="24"/>
  <object id="306" x="0" y="1164" width="24" height="24"/>
  <object id="307" x="-24" y="912" width="84" height="144"/>
  <object id="310" x="504" y="1104" width="24" height="96"/>
  <object id="311" x="528" y="1104" width="24" height="96"/>
  <object id="313" x="552" y="1044" width="24" height="144"/>
  <object id="314" x="552" y="756" width="24" height="144"/>
  <object id="315" x="504" y="756" width="48" height="108"/>
  <object id="316" x="480" y="756" width="24" height="156"/>
  <object id="317" x="0" y="768" width="480" height="144"/>
  <object id="319" x="0" y="756" width="96" height="12"/>
  <object id="320" x="60" y="1020" width="12" height="36"/>
  <object id="321" x="72" y="1044" width="24" height="12"/>
  <object id="322" x="72" y="1032" width="12" height="12"/>
  <object id="323" x="492" y="1032" width="12" height="24"/>
  <object id="324" x="480" y="1044" width="12" height="12"/>
  <object id="325" x="567" y="1216" width="42" height="18"/>
  <object id="326" x="572" y="1208" width="35" height="8"/>
  <object id="327" x="1416" y="1099" width="7" height="29"/>
  <object id="328" x="1457" y="1099" width="7" height="29"/>
  <object id="329" x="1423" y="1099" width="34" height="19"/>
  <object id="330" x="1560" y="1099" width="7" height="29"/>
  <object id="331" x="1601" y="1099" width="7" height="29"/>
  <object id="332" x="1567" y="1099" width="34" height="19"/>
  <object id="333" x="576" y="1051" width="7" height="29"/>
  <object id="334" x="617" y="1051" width="7" height="29"/>
  <object id="335" x="583" y="1051" width="34" height="19"/>
  <object id="336" x="576" y="895" width="7" height="29"/>
  <object id="337" x="617" y="895" width="7" height="29"/>
  <object id="338" x="583" y="895" width="34" height="19"/>
  <object id="339" x="936" y="427" width="7" height="29"/>
  <object id="340" x="977" y="427" width="7" height="29"/>
  <object id="341" x="943" y="427" width="34" height="19"/>
  <object id="342" x="1635" y="1158" width="16" height="15"/>
  <object id="343" x="1643" y="1150" width="15" height="16"/>
  <object id="344" x="1650" y="1142" width="16" height="18"/>
  <object id="345" x="1659" y="1136" width="14" height="15"/>
  <object id="346" x="1662" y="1152" width="15" height="6"/>
  <object id="347" x="1708" y="1093" width="40" height="23"/>
  <object id="348" x="1623" y="486" width="16" height="15"/>
  <object id="349" x="1631" y="478" width="15" height="16"/>
  <object id="350" x="1638" y="470" width="16" height="18"/>
  <object id="351" x="1647" y="464" width="14" height="15"/>
  <object id="352" x="1650" y="480" width="15" height="6"/>
  <object id="353" x="1145" y="385" width="36" height="12"/>
  <object id="354" x="1494" y="49" width="36" height="12"/>
  <object id="355" x="654" y="493" width="36" height="12"/>
  <object id="356" x="836" y="574" width="8" height="25"/>
  <object id="357" x="822" y="577" width="34" height="11"/>
  <object id="359" x="822" y="577" width="36" height="11"/>
  <object id="360" x="1779" y="501" width="42" height="24"/>
  <object id="361" x="1731" y="309" width="42" height="24"/>
  <object id="362" x="1683" y="165" width="42" height="24"/>
  <object id="363" x="1539" y="21" width="42" height="24"/>
  <object id="376" x="0" y="396" width="96" height="96"/>
  <object id="377" x="96" y="360" width="144" height="84"/>
  <object id="378" x="240" y="312" width="144" height="84"/>
  <object id="379" x="384" y="252" width="96" height="96"/>
  <object id="380" x="480" y="216" width="48" height="84"/>
  <object id="381" x="528" y="120" width="96" height="132"/>
  <object id="382" x="624" y="96" width="48" height="108"/>
  <object id="383" x="672" y="24" width="48" height="132"/>
  <object id="384" x="720" y="24" width="96" height="120"/>
  <object id="385" x="816" y="-12" width="48" height="72"/>
  <object id="386" x="864" y="-48" width="48" height="60"/>
 </objectgroup>
 <objectgroup id="5" name="triggers">
  <object id="253" name="player_spawn" x="1464" y="384" width="48" height="72">
   <properties>
    <property name="level" value="house_bandits_hall"/>
   </properties>
  </object>
  <object id="254" name="level_trigger" x="1464" y="360" width="48" height="72">
   <properties>
    <property name="level" value="house_bandits_hall"/>
   </properties>
  </object>
  <object id="255" name="level_trigger" x="1824" y="528" width="48" height="240">
   <properties>
    <property name="level" value="woods"/>
   </properties>
  </object>
  <object id="256" name="level_trigger" x="1488" y="1032" width="48" height="72">
   <properties>
    <property name="level" value="tavern_hall"/>
   </properties>
  </object>
  <object id="257" name="level_trigger" x="-48" y="528" width="48" height="240">
   <properties>
    <property name="level" value="meadow"/>
   </properties>
  </object>
  <object id="258" name="level_trigger" x="504" y="864" width="48" height="240">
   <properties>
    <property name="level" value="guard_station"/>
   </properties>
  </object>
  <object id="259" name="player_spawn" x="1773" y="586" width="48" height="72">
   <properties>
    <property name="level" value="woods"/>
   </properties>
  </object>
  <object id="260" name="player_spawn" x="1488" y="1056" width="48" height="72">
   <properties>
    <property name="level" value="tavern_hall"/>
   </properties>
  </object>
  <object id="261" name="player_spawn" x="555" y="922" width="48" height="72">
   <properties>
    <property name="level" value="guard_station"/>
   </properties>
  </object>
  <object id="262" name="player_spawn" x="3" y="586" width="48" height="72">
   <properties>
    <property name="level" value="meadow"/>
   </properties>
  </object>
  <object id="263" name="player_spawn" x="888" y="586" width="48" height="72">
   <properties>
    <property name="level" value="unknown"/>
   </properties>
  </object>
 </objectgroup>
 <objectgroup id="3" name="renderables">
  <object id="1" gid="830" x="1296" y="816" width="48" height="48"/>
  <object id="2" gid="832" x="1680" y="816" width="48" height="48"/>
  <object id="3" gid="831" x="1344" y="816" width="48" height="48"/>
  <object id="4" gid="831" x="1392" y="816" width="48" height="48"/>
  <object id="5" gid="831" x="1440" y="816" width="48" height="48"/>
  <object id="6" gid="831" x="1488" y="816" width="48" height="48"/>
  <object id="7" gid="831" x="1536" y="816" width="48" height="48"/>
  <object id="8" gid="831" x="1584" y="816" width="48" height="48"/>
  <object id="9" gid="831" x="1632" y="816" width="48" height="48"/>
  <object id="10" gid="831" x="1344" y="144" width="48" height="48"/>
  <object id="11" gid="831" x="1392" y="144" width="48" height="48"/>
  <object id="12" gid="831" x="1440" y="144" width="48" height="48"/>
  <object id="13" gid="831" x="1488" y="144" width="48" height="48"/>
  <object id="14" gid="831" x="1536" y="144" width="48" height="48"/>
  <object id="15" gid="831" x="1584" y="144" width="48" height="48"/>
  <object id="16" gid="832" x="1632" y="144" width="48" height="48"/>
  <object id="17" gid="830" x="1296" y="144" width="48" height="48"/>
  <object id="26" gid="874" x="528" y="768" width="48" height="48"/>
  <object id="27" gid="874" x="528" y="1056" width="48" height="48"/>
  <object id="28" gid="874" x="48" y="768" width="48" height="48"/>
  <object id="29" gid="874" x="48" y="1056" width="48" height="48"/>
  <object id="30" gid="873" x="0" y="1056" width="48" height="48"/>
  <object id="31" gid="873" x="0" y="768" width="48" height="48"/>
  <object id="32" gid="873" x="480" y="768" width="48" height="48"/>
  <object id="33" gid="873" x="480" y="1056" width="48" height="48"/>
  <object id="34" gid="1714" x="816" y="600" width="48" height="48"/>
  <object id="35" gid="1715" x="1560" y="1128" width="48" height="48"/>
  <object id="36" gid="1715" x="1416" y="1128" width="48" height="48"/>
  <object id="37" gid="1715" x="936" y="456" width="48" height="48"/>
  <object id="38" gid="1715" x="576" y="924" width="48" height="48"/>
  <object id="39" gid="1715" x="576" y="1080" width="48" height="48"/>
  <object id="40" gid="1752" x="564" y="1236" width="48" height="48"/>
  <object id="92" gid="1765" x="1632" y="1176" width="48" height="48"/>
  <object id="93" gid="1718" x="1704" y="1116" width="48" height="48"/>
  <object id="94" gid="1749" x="1140" y="408" width="48" height="48"/>
  <object id="95" gid="1749" x="1488" y="72" width="48" height="48"/>
  <object id="96" gid="1765" x="1620" y="504" width="48" height="48"/>
  <object id="97" gid="1749" x="648" y="516" width="48" height="48"/>
  <object id="98" gid="1751" x="1728" y="48" width="48" height="48"/>
  <object id="99" gid="1751" x="1776" y="48" width="48" height="48"/>
  <object id="100" gid="1751" x="1776" y="96" width="48" height="48"/>
  <object id="101" gid="1751" x="1728" y="96" width="48" height="48"/>
  <object id="102" gid="1751" x="1728" y="144" width="48" height="48"/>
  <object id="103" gid="1751" x="1776" y="144" width="48" height="48"/>
  <object id="104" gid="1751" x="1776" y="192" width="48" height="48"/>
  <object id="105" gid="1751" x="1776" y="240" width="48" height="48"/>
  <object id="106" gid="1751" x="1776" y="288" width="48" height="48"/>
  <object id="107" gid="1751" x="1776" y="336" width="48" height="48"/>
  <object id="108" gid="1751" x="1776" y="384" width="48" height="48"/>
  <object id="109" gid="1751" x="1728" y="192" width="48" height="48"/>
  <object id="110" gid="1751" x="1680" y="48" width="48" height="48"/>
  <object id="111" gid="1751" x="1680" y="96" width="48" height="48"/>
  <object id="112" gid="1751" x="1728" y="240" width="48" height="48"/>
  <object id="113" gid="1751" x="1776" y="432" width="48" height="48"/>
  <object id="114" gid="1766" x="1776" y="480" width="48" height="48"/>
  <object id="115" gid="1766" x="1728" y="288" width="48" height="48"/>
  <object id="116" gid="1766" x="1680" y="144" width="48" height="48"/>
  <object id="117" gid="1766" x="1632" y="48" width="48" height="48"/>
  <object id="118" gid="1766" x="1584" y="48" width="48" height="48"/>
  <object id="120" gid="1767" x="1680" y="192" width="48" height="48"/>
  <object id="121" gid="1767" x="1728" y="336" width="48" height="48"/>
  <object id="122" gid="1767" x="1776" y="528" width="48" height="48"/>
  <object id="123" gid="1767" x="1536" y="48" width="48" height="48"/>
  <object id="219" gid="761" x="1488" y="1104" width="48" height="48"/>
  <object id="220" gid="745" x="1488" y="1056" width="48" height="48"/>
  <object id="221" gid="761" x="1464" y="432" width="48" height="48"/>
  <object id="222" gid="745" x="1464" y="384" width="48" height="48"/>
  <object id="223" gid="760" x="888" y="432" width="48" height="48"/>
  <object id="224" gid="744" x="888" y="384" width="48" height="48"/>
  <object id="225" gid="1873" x="1332" y="1068" width="48" height="48"/>
  <object id="226" gid="1873" x="1416" y="1068" width="48" height="48"/>
  <object id="227" gid="1873" x="1560" y="1068" width="48" height="48"/>
  <object id="228" gid="1873" x="1644" y="1068" width="48" height="48"/>
  <object id="229" gid="1857" x="1332" y="1020" width="48" height="48"/>
  <object id="230" gid="1857" x="1416" y="1020" width="48" height="48"/>
  <object id="231" gid="1857" x="1560" y="1020" width="48" height="48"/>
  <object id="232" gid="1857" x="1644" y="1020" width="48" height="48"/>
  <object id="234" gid="1873" x="1488" y="1020" width="48" height="48"/>
  <object id="235" gid="1857" x="1488" y="972" width="48" height="48"/>
  <object id="236" gid="1905" x="1356" y="408" width="48" height="48"/>
  <object id="237" gid="1889" x="1356" y="360" width="48" height="48"/>
  <object id="239" gid="1905" x="1572" y="408" width="48" height="48"/>
  <object id="240" gid="1889" x="1572" y="360" width="48" height="48"/>
  <object id="241" gid="1873" x="1464" y="360" width="48" height="48"/>
  <object id="242" gid="1857" x="1464" y="312" width="48" height="48"/>
  <object id="243" gid="1873" x="888" y="360" width="48" height="48"/>
  <object id="244" gid="1857" x="888" y="312" width="48" height="48"/>
  <object id="245" gid="1873" x="744" y="396" width="48" height="48"/>
  <object id="246" gid="1873" x="816" y="396" width="48" height="48"/>
  <object id="247" gid="1873" x="960" y="396" width="48" height="48"/>
  <object id="248" gid="1873" x="1032" y="396" width="48" height="48"/>
  <object id="249" gid="1857" x="1032" y="348" width="48" height="48"/>
  <object id="250" gid="1857" x="960" y="348" width="48" height="48"/>
  <object id="251" gid="1857" x="816" y="348" width="48" height="48"/>
  <object id="252" gid="1857" x="744" y="348" width="48" height="48"/>
  <object id="364" gid="779" x="1056" y="144" width="48" height="48"/>
  <object id="365" gid="777" x="720" y="144" width="48" height="48"/>
  <object id="366" gid="578" x="768" y="144" width="48" height="48"/>
  <object id="367" gid="578" x="816" y="144" width="48" height="48"/>
  <object id="368" gid="578" x="864" y="144" width="48" height="48"/>
  <object id="369" gid="578" x="912" y="144" width="48" height="48"/>
  <object id="370" gid="578" x="960" y="144" width="48" height="48"/>
  <object id="371" gid="578" x="1008" y="144" width="48" height="48"/>
 </objectgroup>
</map>
