<?xml version="1.0" encoding="UTF-8"?>
<map version="1.10" tiledversion="1.12.2" orientation="orthogonal" renderorder="right-down" width="32" height="24" tilewidth="48" tileheight="48" infinite="0" nextlayerid="10" nextobjectid="513">
 <properties>
  <property name="level_type" value="outdoor"/>
 </properties>
 <tileset firstgid="1" source="tilesets/Outside_A2.tsx"/>
 <tileset firstgid="225" source="tilesets/Outside_C.tsx"/>
 <tileset firstgid="481" source="tilesets/Outside_A5.tsx"/>
 <tileset firstgid="609" source="tilesets/Outside_A3.tsx"/>
 <tileset firstgid="801" source="tilesets/Outside_A4.tsx"/>
 <tileset firstgid="1073" source="tilesets/Outside_B.tsx"/>
 <tileset firstgid="1329" source="tilesets/Inside_B.tsx"/>
 <tileset firstgid="1585" source="tilesets/Outside_A1.tsx"/>
 <layer id="1" name="background" width="32" height="24">
  <data encoding="csv">
501,501,501,501,501,501,501,501,501,501,501,501,501,501,501,501,501,802,802,802,802,802,802,802,802,802,802,802,802,802,501,501,
501,501,501,501,501,501,501,501,501,501,501,501,501,501,501,501,501,802,802,802,802,802,802,802,802,802,802,802,802,802,501,501,
501,501,501,501,501,501,501,501,501,501,501,501,501,501,501,501,501,802,802,802,802,802,802,802,802,802,802,802,802,802,501,501,
501,501,673,673,673,673,673,501,501,501,501,501,501,501,501,501,501,802,802,802,802,802,802,802,802,802,802,802,802,802,501,501,
501,501,753,753,753,753,753,501,501,501,501,501,501,501,501,501,501,802,802,802,802,802,802,802,802,802,802,802,802,802,501,501,
501,501,689,689,689,689,689,501,501,501,501,501,501,501,501,501,501,501,501,501,501,501,194,210,195,501,501,501,501,501,501,501,
501,501,501,194,210,195,501,501,501,501,501,501,501,501,501,501,501,501,501,501,501,501,194,210,195,501,501,501,501,501,501,501,
501,501,501,194,210,195,501,501,501,501,501,501,501,501,501,501,501,501,501,501,501,501,194,210,195,501,501,501,501,501,501,501,
501,501,501,194,210,195,501,501,501,501,501,501,501,501,501,501,501,501,501,501,501,501,194,210,195,501,501,501,501,501,501,501,
501,501,501,194,210,210,193,193,193,193,193,193,193,193,193,193,193,193,193,193,193,193,210,210,195,501,501,501,501,501,501,501,
501,501,501,35,209,209,210,210,209,209,209,209,209,209,209,209,209,209,209,210,210,210,209,209,36,501,501,501,501,501,501,501,
501,501,501,501,501,501,194,195,501,501,501,501,501,501,501,501,501,501,501,194,210,195,501,501,501,501,501,501,501,501,501,501,
501,501,501,501,501,501,194,195,501,501,501,501,501,501,501,501,501,501,501,194,210,195,501,501,501,501,501,501,501,501,501,501,
501,501,501,501,501,501,194,195,501,501,611,611,611,611,611,611,611,501,501,194,210,195,501,501,501,501,501,501,501,501,501,501,
501,501,501,501,501,501,194,195,501,501,804,804,804,804,804,804,804,501,501,194,210,195,501,501,501,501,501,501,501,501,501,501,
501,501,501,501,501,501,194,195,501,501,804,804,804,804,804,804,804,501,501,194,210,195,501,501,501,501,501,501,501,501,501,501,
501,501,501,501,501,501,194,195,501,501,804,804,804,804,804,804,804,501,501,194,210,195,501,501,651,774,774,774,774,774,652,501,
501,501,501,501,501,501,194,195,501,501,804,804,804,804,804,804,804,501,501,194,210,195,501,501,747,789,789,789,789,789,748,501,
501,501,501,501,501,501,194,195,501,501,804,804,804,804,804,804,804,501,501,194,210,195,501,501,747,789,789,789,789,789,748,501,
501,501,501,501,501,501,194,195,501,501,501,501,194,210,195,501,501,501,501,194,210,195,501,501,667,790,790,790,790,790,668,501,
501,501,501,501,501,501,194,195,501,501,501,501,194,210,195,501,501,501,501,194,210,195,501,501,501,501,194,210,195,501,501,501,
501,501,501,501,501,501,194,210,193,193,193,193,210,210,210,193,193,193,193,210,210,210,193,193,193,193,210,210,195,501,501,501,
501,501,501,501,501,501,35,209,209,209,209,209,209,209,209,209,209,209,209,209,209,209,209,209,209,209,209,209,36,501,501,501,
501,501,501,501,501,501,501,501,501,501,501,501,501,501,501,501,501,501,501,501,501,501,501,501,501,501,501,501,501,501,501,501
</data>
 </layer>
 <layer id="2" name="decoration" width="32" height="24">
  <data encoding="csv">
1251,0,286,287,287,287,288,1251,0,0,0,0,0,0,1250,0,329,330,0,0,0,0,0,0,0,0,0,0,0,329,330,0,
0,0,302,303,303,303,304,1252,0,0,0,0,0,0,0,1251,345,346,0,0,0,0,0,0,0,0,0,0,0,345,346,0,
0,1265,318,319,319,319,320,0,0,0,0,0,0,0,0,0,361,362,0,0,0,0,0,0,0,0,0,0,0,361,362,1251,
1268,0,0,0,0,0,0,1265,0,0,1639,1250,0,0,1250,0,377,378,0,0,0,0,0,0,0,0,0,0,0,377,378,0,
0,0,0,0,0,0,0,0,1251,0,1267,0,0,1252,0,0,393,394,0,0,0,0,0,0,0,0,0,0,0,393,394,1250,
0,1252,0,0,0,0,0,0,0,1252,0,0,1265,0,0,1251,0,1268,0,1250,0,1265,0,0,0,1250,0,0,0,0,1267,0,
0,0,0,0,0,0,0,1250,0,0,0,0,0,0,1639,0,0,0,0,0,0,1267,0,0,0,1266,0,0,1251,0,0,0,
0,0,0,0,0,0,0,0,1639,0,1251,0,0,0,1250,0,0,0,1252,0,0,1268,0,0,0,1267,0,0,1250,0,0,0,
0,1251,0,0,0,0,0,1252,0,0,0,0,1268,0,0,0,0,1265,0,0,0,1266,0,0,0,1265,0,0,0,0,0,0,
0,0,0,0,0,0,0,0,0,0,0,0,0,0,1284,0,0,0,0,0,0,0,0,0,0,0,0,1251,0,0,0,0,
0,1265,0,1284,0,0,0,0,0,0,0,0,0,0,0,0,0,0,0,0,0,0,0,0,0,0,0,0,0,0,0,0,
0,0,0,1250,1268,0,0,0,0,0,0,1251,0,1267,0,0,0,0,0,0,0,0,0,0,0,0,1252,0,0,0,0,0,
0,0,1252,0,0,0,0,0,0,1265,0,0,0,0,1265,0,0,0,1252,0,0,0,1265,0,0,0,0,0,0,1250,0,0,
0,0,0,1267,0,1252,0,0,0,0,0,0,0,0,0,0,0,0,0,0,0,0,0,1267,281,619,619,619,619,620,283,0,
0,0,0,1639,0,0,0,0,0,1268,0,0,0,0,0,0,0,0,0,0,0,0,0,0,297,635,635,635,635,636,299,0,
0,0,0,0,0,0,0,0,1252,0,0,0,0,0,0,0,0,0,0,1284,0,0,0,1251,313,314,314,314,314,314,315,0,
0,0,0,0,1265,0,0,0,0,0,0,0,0,0,0,0,0,0,0,0,0,0,1268,0,0,0,0,0,0,0,0,0,
1251,0,0,0,1251,0,0,0,0,0,0,0,0,0,0,0,0,0,0,0,0,0,0,0,0,0,0,0,0,0,0,1252,
0,0,1252,1267,0,0,0,0,1267,0,0,0,0,0,0,0,0,0,1251,0,0,0,0,0,0,0,0,0,0,0,0,0,
0,0,0,0,1639,0,0,0,0,0,0,0,0,0,0,0,0,0,0,0,0,0,1252,0,0,0,0,0,0,0,0,0,
0,0,0,0,0,1250,0,0,0,1251,0,0,0,0,0,0,1267,0,0,0,0,0,0,0,0,0,0,0,0,0,1250,0,
0,0,0,1268,0,0,0,0,0,0,0,0,0,0,0,0,0,0,0,0,0,0,0,0,0,0,0,0,0,0,0,0,
0,0,0,0,0,1252,1284,0,0,0,0,0,0,0,0,0,0,0,0,0,0,0,0,0,0,0,0,0,1284,1268,0,1251,
0,0,0,1265,0,0,0,0,0,0,1251,0,0,0,1250,0,0,0,1267,0,0,0,1268,1251,0,0,0,0,1265,0,0,0
</data>
 </layer>
 <objectgroup id="7" name="collision">
  <object id="122" x="252" y="275" width="48" height="25"/>
  <object id="123" x="91" y="836" width="34" height="17"/>
  <object id="124" x="703" y="140" width="35" height="17"/>
  <object id="125" x="788" y="430" width="8" height="25"/>
  <object id="126" x="774" y="433" width="36" height="11"/>
  <object id="128" x="1432" y="557" width="15" height="16"/>
  <object id="129" x="1439" y="549" width="14" height="18"/>
  <object id="130" x="1450" y="541" width="13" height="18"/>
  <object id="131" x="1457" y="535" width="13" height="15"/>
  <object id="132" x="1455" y="551" width="19" height="8"/>
  <object id="133" x="-48" y="0" width="48" height="1152"/>
  <object id="134" x="0" y="-48" width="1536" height="48"/>
  <object id="135" x="1536" y="0" width="48" height="1152"/>
  <object id="136" x="0" y="1152" width="1536" height="48"/>
  <object id="140" x="96" y="144" width="96" height="144"/>
  <object id="141" x="192" y="144" width="48" height="132"/>
  <object id="142" x="240" y="144" width="96" height="144"/>
  <object id="143" x="96" y="36" width="240" height="108"/>
  <object id="144" x="120" y="12" width="192" height="24"/>
  <object id="146" x="816" y="0" width="288" height="240"/>
  <object id="147" x="1152" y="0" width="288" height="240"/>
  <object id="148" x="1104" y="0" width="48" height="144"/>
  <object id="151" x="768" y="24" width="48" height="180"/>
  <object id="152" x="780" y="12" width="36" height="12"/>
  <object id="153" x="780" y="204" width="36" height="24"/>
  <object id="157" x="1440" y="24" width="48" height="180"/>
  <object id="158" x="1440" y="12" width="36" height="12"/>
  <object id="161" x="1440" y="204" width="36" height="24"/>
  <object id="163" x="480" y="672" width="144" height="240"/>
  <object id="164" x="624" y="672" width="48" height="228"/>
  <object id="165" x="672" y="672" width="144" height="240"/>
  <object id="166" x="480" y="648" width="336" height="24"/>
  <object id="167" x="1152" y="768" width="144" height="192"/>
  <object id="168" x="1296" y="768" width="48" height="180"/>
  <object id="169" x="1344" y="768" width="144" height="192"/>
  <object id="170" x="1152" y="660" width="336" height="108"/>
  <object id="172" x="1164" y="648" width="312" height="12"/>
  <object id="173" x="0" y="960" width="96" height="192"/>
  <object id="174" x="96" y="1140" width="12" height="12"/>
  <object id="175" x="96" y="1092" width="48" height="48"/>
  <object id="176" x="96" y="1080" width="36" height="12"/>
  <object id="177" x="96" y="1044" width="12" height="12"/>
  <object id="178" x="96" y="996" width="48" height="48"/>
  <object id="179" x="96" y="984" width="36" height="12"/>
  <object id="180" x="0" y="948" width="96" height="12"/>
  <object id="181" x="12" y="936" width="72" height="12"/>
  <object id="184" x="60" y="792" width="24" height="24"/>
  <object id="185" x="108" y="792" width="24" height="24"/>
  <object id="186" x="12" y="696" width="24" height="24"/>
  <object id="187" x="48" y="744" width="96" height="48"/>
  <object id="188" x="48" y="648" width="48" height="96"/>
  <object id="189" x="0" y="600" width="48" height="96"/>
  <object id="190" x="3" y="742" width="42" height="22"/>
  <object id="191" x="1500" y="504" width="24" height="24"/>
  <object id="192" x="1452" y="456" width="24" height="24"/>
  <object id="193" x="1440" y="360" width="48" height="96"/>
  <object id="194" x="1488" y="312" width="48" height="192"/>
  <object id="195" x="492" y="132" width="24" height="12"/>
  <object id="196" x="588" y="132" width="24" height="12"/>
  <object id="197" x="636" y="84" width="24" height="12"/>
  <object id="198" x="444" y="84" width="24" height="12"/>
  <object id="199" x="408" y="48" width="288" height="12"/>
  <object id="200" x="420" y="60" width="264" height="12"/>
  <object id="201" x="432" y="72" width="240" height="12"/>
  <object id="202" x="456" y="96" width="192" height="12"/>
  <object id="206" x="468" y="108" width="72" height="12"/>
  <object id="207" x="480" y="120" width="48" height="12"/>
  <object id="208" x="564" y="108" width="72" height="12"/>
  <object id="209" x="576" y="120" width="48" height="12"/>
  <object id="210" x="468" y="84" width="168" height="12"/>
  <object id="212" x="413" y="36" width="278" height="12"/>
  <object id="213" x="420" y="24" width="264" height="12"/>
  <object id="214" x="432" y="12" width="240" height="12"/>
  <object id="215" x="444" y="0" width="216" height="12"/>
  <object id="217" x="398" y="106" width="42" height="22"/>
  <object id="218" x="423" y="130" width="42" height="22"/>
  <object id="219" x="638" y="130" width="42" height="22"/>
  <object id="220" x="663" y="106" width="42" height="22"/>
  <object id="221" x="1491" y="551" width="42" height="22"/>
  <object id="222" x="1443" y="503" width="42" height="22"/>
 </objectgroup>
 <objectgroup id="8" name="triggers">
  <object id="223" name="level_trigger" x="192" y="216" width="48" height="72">
   <properties>
    <property name="level" value="inn"/>
   </properties>
  </object>
  <object id="224" name="level_trigger" x="1104" y="168" width="48" height="72">
   <properties>
    <property name="level" value="castle"/>
   </properties>
  </object>
  <object id="225" name="level_trigger" x="624" y="840" width="48" height="72">
   <properties>
    <property name="level" value="house_marquis"/>
   </properties>
  </object>
  <object id="226" name="level_trigger" x="1296" y="888" width="48" height="72">
   <properties>
    <property name="level" value="house_mage"/>
   </properties>
  </object>
  <object id="227" name="player_spawn" x="192" y="240" width="48" height="72">
   <properties>
    <property name="level" value="inn"/>
   </properties>
  </object>
  <object id="228" name="player_spawn" x="624" y="864" width="48" height="72">
   <properties>
    <property name="level" value="house_marquis"/>
   </properties>
  </object>
  <object id="229" name="player_spawn" x="1104" y="192" width="48" height="72">
   <properties>
    <property name="level" value="castle"/>
   </properties>
  </object>
  <object id="230" name="player_spawn" x="1296" y="912" width="48" height="72">
   <properties>
    <property name="level" value="house_mage"/>
   </properties>
  </object>
  <object id="231" name="player_spawn" x="576" y="430" width="48" height="72">
   <properties>
    <property name="level" value="unknown"/>
   </properties>
  </object>
  <object id="508" name="player_spawn" x="1104" y="408" width="48" height="72">
   <properties>
    <property name="level" value="house_bandits_office"/>
   </properties>
  </object>
  <object id="509" name="npc_spawn" x="1032" y="204" width="48" height="72">
   <properties>
    <property name="direction" value="down"/>
    <property name="npc_id" value="cedric"/>
    <property name="spawn_id" value="cedric_end"/>
   </properties>
  </object>
  <object id="510" name="npc_spawn" x="1176" y="204" width="48" height="72">
   <properties>
    <property name="direction" value="down"/>
    <property name="npc_id" value="silas"/>
    <property name="spawn_id" value="silas_end"/>
   </properties>
  </object>
  <object id="511" name="npc_spawn" x="972" y="264" width="48" height="72">
   <properties>
    <property name="direction" value="down"/>
    <property name="npc_id" value="thorne"/>
    <property name="spawn_id" value="thorne_end"/>
   </properties>
  </object>
  <object id="512" name="npc_spawn" x="1236" y="264" width="48" height="72">
   <properties>
    <property name="direction" value="down"/>
    <property name="npc_id" value="brunt"/>
    <property name="spawn_id" value="brunt_end"/>
   </properties>
  </object>
 </objectgroup>
 <objectgroup id="3" name="renderables">
  <object id="1" gid="1270" x="0" y="720" width="48" height="48"/>
  <object id="2" gid="1255" x="0" y="672" width="48" height="48"/>
  <object id="3" gid="1254" x="0" y="624" width="48" height="48"/>
  <object id="4" gid="1255" x="48" y="720" width="48" height="48"/>
  <object id="5" gid="1255" x="48" y="768" width="48" height="48"/>
  <object id="6" gid="1254" x="48" y="672" width="48" height="48"/>
  <object id="7" gid="1254" x="96" y="768" width="48" height="48"/>
  <object id="8" gid="1270" x="48" y="816" width="48" height="48"/>
  <object id="9" gid="1270" x="96" y="816" width="48" height="48"/>
  <object id="10" gid="1271" x="0" y="768" width="48" height="48"/>
  <object id="11" gid="1315" x="0" y="1152" width="48" height="48"/>
  <object id="12" gid="1315" x="0" y="1056" width="48" height="48"/>
  <object id="13" gid="1316" x="48" y="1056" width="48" height="48"/>
  <object id="14" gid="1316" x="48" y="1152" width="48" height="48"/>
  <object id="15" gid="1299" x="0" y="1104" width="48" height="48"/>
  <object id="16" gid="1299" x="0" y="1008" width="48" height="48"/>
  <object id="17" gid="1300" x="48" y="1008" width="48" height="48"/>
  <object id="18" gid="1300" x="48" y="1104" width="48" height="48"/>
  <object id="19" gid="1298" x="96" y="1008" width="48" height="48"/>
  <object id="20" gid="1298" x="96" y="1104" width="48" height="48"/>
  <object id="21" gid="1314" x="96" y="1152" width="48" height="48"/>
  <object id="22" gid="1314" x="96" y="1056" width="48" height="48"/>
  <object id="23" gid="1298" x="48" y="960" width="48" height="48"/>
  <object id="24" gid="1297" x="0" y="960" width="48" height="48"/>
  <object id="25" gid="1270" x="1488" y="528" width="48" height="48"/>
  <object id="26" gid="1270" x="1440" y="480" width="48" height="48"/>
  <object id="27" gid="1254" x="1440" y="384" width="48" height="48"/>
  <object id="28" gid="1254" x="1488" y="336" width="48" height="48"/>
  <object id="30" gid="1255" x="1488" y="384" width="48" height="48"/>
  <object id="31" gid="1255" x="1488" y="432" width="48" height="48"/>
  <object id="32" gid="1255" x="1488" y="480" width="48" height="48"/>
  <object id="33" gid="1255" x="1440" y="432" width="48" height="48"/>
  <object id="34" gid="1271" x="1488" y="576" width="48" height="48"/>
  <object id="35" gid="1271" x="1440" y="528" width="48" height="48"/>
  <object id="38" gid="1298" x="648" y="48" width="48" height="48"/>
  <object id="39" gid="1314" x="648" y="96" width="48" height="48"/>
  <object id="42" gid="1300" x="600" y="48" width="48" height="48"/>
  <object id="43" gid="1316" x="600" y="96" width="48" height="48"/>
  <object id="44" gid="1299" x="552" y="48" width="48" height="48"/>
  <object id="45" gid="1315" x="552" y="96" width="48" height="48"/>
  <object id="46" gid="1300" x="504" y="48" width="48" height="48"/>
  <object id="47" gid="1316" x="504" y="96" width="48" height="48"/>
  <object id="48" gid="1299" x="456" y="48" width="48" height="48"/>
  <object id="49" gid="1315" x="456" y="96" width="48" height="48"/>
  <object id="50" gid="1297" x="408" y="48" width="48" height="48"/>
  <object id="51" gid="1313" x="408" y="96" width="48" height="48"/>
  <object id="52" gid="1313" x="456" y="144" width="48" height="48"/>
  <object id="53" gid="1314" x="504" y="144" width="48" height="48"/>
  <object id="54" gid="1313" x="552" y="144" width="48" height="48"/>
  <object id="55" gid="1314" x="600" y="144" width="48" height="48"/>
  <object id="56" gid="1271" x="396" y="132" width="48" height="48"/>
  <object id="57" gid="1271" x="420" y="156" width="48" height="48"/>
  <object id="58" gid="1271" x="660" y="132" width="48" height="48"/>
  <object id="59" gid="1271" x="636" y="156" width="48" height="48"/>
  <object id="60" gid="1361" x="120" y="216" width="48" height="48"/>
  <object id="61" gid="1377" x="120" y="264" width="48" height="48"/>
  <object id="62" gid="1361" x="264" y="216" width="48" height="48"/>
  <object id="63" gid="1377" x="264" y="264" width="48" height="48"/>
  <object id="66" gid="1409" x="1104" y="144" width="48" height="48"/>
  <object id="67" gid="1393" x="1104" y="96" width="48" height="48"/>
  <object id="68" gid="1409" x="912" y="144" width="48" height="48"/>
  <object id="69" gid="1393" x="912" y="96" width="48" height="48"/>
  <object id="70" gid="1409" x="1296" y="144" width="48" height="48"/>
  <object id="71" gid="1393" x="1296" y="96" width="48" height="48"/>
  <object id="72" gid="1343" x="1200" y="48" width="48" height="48"/>
  <object id="73" gid="1359" x="1200" y="96" width="48" height="48"/>
  <object id="74" gid="1343" x="1008" y="48" width="48" height="48"/>
  <object id="75" gid="1359" x="1008" y="96" width="48" height="48"/>
  <object id="78" gid="1377" x="528" y="888" width="48" height="48"/>
  <object id="79" gid="1361" x="528" y="840" width="48" height="48"/>
  <object id="80" gid="1361" x="528" y="732" width="48" height="48"/>
  <object id="81" gid="1377" x="528" y="780" width="48" height="48"/>
  <object id="82" gid="1377" x="624" y="780" width="48" height="48"/>
  <object id="83" gid="1377" x="720" y="780" width="48" height="48"/>
  <object id="84" gid="1361" x="624" y="732" width="48" height="48"/>
  <object id="85" gid="1361" x="720" y="732" width="48" height="48"/>
  <object id="86" gid="1377" x="720" y="888" width="48" height="48"/>
  <object id="87" gid="1361" x="720" y="840" width="48" height="48"/>
  <object id="91" gid="1409" x="1200" y="924" width="48" height="48"/>
  <object id="92" gid="1393" x="1200" y="876" width="48" height="48"/>
  <object id="93" gid="1409" x="1392" y="924" width="48" height="48"/>
  <object id="94" gid="1393" x="1392" y="876" width="48" height="48"/>
  <object id="95" gid="793" x="192" y="288" width="48" height="48"/>
  <object id="96" gid="777" x="192" y="240" width="48" height="48"/>
  <object id="97" gid="792" x="624" y="912" width="48" height="48"/>
  <object id="98" gid="776" x="624" y="864" width="48" height="48"/>
  <object id="99" gid="794" x="1080" y="240" width="48" height="48"/>
  <object id="100" gid="795" x="1128" y="240" width="48" height="48"/>
  <object id="101" gid="778" x="1080" y="192" width="48" height="48"/>
  <object id="102" gid="779" x="1128" y="192" width="48" height="48"/>
  <object id="105" gid="792" x="1296" y="960" width="48" height="48"/>
  <object id="106" gid="776" x="1296" y="912" width="48" height="48"/>
  <object id="109" gid="1377" x="1296" y="876" width="48" height="48"/>
  <object id="110" gid="1361" x="1296" y="828" width="48" height="48"/>
  <object id="111" gid="1253" x="696" y="168" width="48" height="48"/>
  <object id="112" gid="1253" x="84" y="864" width="48" height="48"/>
  <object id="113" gid="1269" x="1428" y="576" width="48" height="48"/>
  <object id="116" gid="1219" x="252" y="300" width="48" height="48"/>
  <object id="118" gid="1218" x="768" y="456" width="48" height="48"/>
  <object id="232" gid="286" x="96" y="48" width="48" height="48"/>
  <object id="233" gid="287" x="144" y="48" width="48" height="48"/>
  <object id="234" gid="287" x="192" y="48" width="48" height="48"/>
  <object id="235" gid="287" x="240" y="48" width="48" height="48"/>
  <object id="236" gid="288" x="288" y="48" width="48" height="48"/>
  <object id="237" gid="281" x="1152" y="672" width="48" height="48"/>
  <object id="238" gid="283" x="1440" y="672" width="48" height="48"/>
  <object id="239" gid="619" x="1200" y="672" width="48" height="48"/>
  <object id="240" gid="619" x="1248" y="672" width="48" height="48"/>
  <object id="241" gid="619" x="1296" y="672" width="48" height="48"/>
  <object id="242" gid="619" x="1344" y="672" width="48" height="48"/>
  <object id="243" gid="619" x="1392" y="672" width="48" height="48"/>
  <object id="244" gid="611" x="480" y="672" width="48" height="48"/>
  <object id="245" gid="611" x="528" y="672" width="48" height="48"/>
  <object id="246" gid="611" x="576" y="672" width="48" height="48"/>
  <object id="247" gid="611" x="624" y="672" width="48" height="48"/>
  <object id="248" gid="611" x="672" y="672" width="48" height="48"/>
  <object id="249" gid="611" x="720" y="672" width="48" height="48"/>
  <object id="250" gid="611" x="768" y="672" width="48" height="48"/>
  <object id="251" gid="329" x="768" y="48" width="48" height="48"/>
  <object id="252" gid="330" x="1440" y="48" width="48" height="48"/>
 </objectgroup>
 <objectgroup id="9" name="lights">
  <object id="358" x="1308" y="814" width="23" height="3"/>
  <object id="359" x="1308" y="820" width="10" height="9"/>
  <object id="360" x="1321" y="820" width="10" height="9"/>
  <object id="361" x="1308" y="829" width="10" height="9"/>
  <object id="362" x="1321" y="829" width="10" height="9"/>
  <object id="363" x="1401" y="867" width="5" height="8"/>
  <object id="364" x="1408" y="867" width="5" height="8"/>
  <object id="365" x="1408" y="878" width="5" height="8"/>
  <object id="366" x="1401" y="878" width="5" height="8"/>
  <object id="367" x="1401" y="889" width="5" height="8"/>
  <object id="368" x="1408" y="889" width="5" height="8"/>
  <object id="369" x="1420" y="867" width="5" height="8"/>
  <object id="370" x="1427" y="867" width="5" height="8"/>
  <object id="371" x="1427" y="878" width="5" height="8"/>
  <object id="372" x="1420" y="878" width="5" height="8"/>
  <object id="373" x="1420" y="889" width="5" height="8"/>
  <object id="374" x="1427" y="889" width="5" height="8"/>
  <object id="375" x="1401" y="856" width="13" height="4"/>
  <object id="376" x="1419" y="856" width="13" height="4"/>
  <object id="377" x="1419" y="850" width="3" height="4"/>
  <object id="378" x="1422" y="851" width="3" height="3"/>
  <object id="379" x="1425" y="852" width="2" height="2"/>
  <object id="380" x="1427" y="853" width="2" height="1"/>
  <object id="381" x="1411" y="850" width="3" height="4"/>
  <object id="382" x="1408" y="851" width="3" height="3"/>
  <object id="383" x="1406" y="852" width="2" height="2"/>
  <object id="384" x="1404" y="853" width="2" height="1"/>
  <object id="385" x="540" y="718" width="23" height="3"/>
  <object id="386" x="540" y="724" width="10" height="9"/>
  <object id="387" x="553" y="724" width="10" height="9"/>
  <object id="388" x="540" y="733" width="10" height="9"/>
  <object id="389" x="553" y="733" width="10" height="9"/>
  <object id="390" x="636" y="718" width="23" height="3"/>
  <object id="391" x="636" y="724" width="10" height="9"/>
  <object id="392" x="649" y="724" width="10" height="9"/>
  <object id="393" x="636" y="733" width="10" height="9"/>
  <object id="394" x="649" y="733" width="10" height="9"/>
  <object id="395" x="732" y="718" width="23" height="3"/>
  <object id="396" x="732" y="724" width="10" height="9"/>
  <object id="397" x="745" y="724" width="10" height="9"/>
  <object id="398" x="732" y="733" width="10" height="9"/>
  <object id="399" x="745" y="733" width="10" height="9"/>
  <object id="400" x="540" y="826" width="23" height="3"/>
  <object id="401" x="540" y="832" width="10" height="9"/>
  <object id="402" x="553" y="832" width="10" height="9"/>
  <object id="403" x="540" y="841" width="10" height="9"/>
  <object id="404" x="553" y="841" width="10" height="9"/>
  <object id="405" x="732" y="826" width="23" height="3"/>
  <object id="406" x="732" y="832" width="10" height="9"/>
  <object id="407" x="745" y="832" width="10" height="9"/>
  <object id="408" x="732" y="841" width="10" height="9"/>
  <object id="409" x="745" y="841" width="10" height="9"/>
  <object id="410" x="132" y="202" width="23" height="3"/>
  <object id="411" x="132" y="208" width="10" height="9"/>
  <object id="412" x="145" y="208" width="10" height="9"/>
  <object id="413" x="132" y="217" width="10" height="9"/>
  <object id="414" x="145" y="217" width="10" height="9"/>
  <object id="415" x="276" y="202" width="23" height="3"/>
  <object id="416" x="276" y="208" width="10" height="9"/>
  <object id="417" x="289" y="208" width="10" height="9"/>
  <object id="418" x="276" y="217" width="10" height="9"/>
  <object id="419" x="289" y="217" width="10" height="9"/>
  <object id="420" x="1209" y="867" width="5" height="8"/>
  <object id="421" x="1216" y="867" width="5" height="8"/>
  <object id="422" x="1216" y="878" width="5" height="8"/>
  <object id="423" x="1209" y="878" width="5" height="8"/>
  <object id="424" x="1209" y="889" width="5" height="8"/>
  <object id="425" x="1216" y="889" width="5" height="8"/>
  <object id="426" x="1228" y="867" width="5" height="8"/>
  <object id="427" x="1235" y="867" width="5" height="8"/>
  <object id="428" x="1235" y="878" width="5" height="8"/>
  <object id="429" x="1228" y="878" width="5" height="8"/>
  <object id="430" x="1228" y="889" width="5" height="8"/>
  <object id="431" x="1235" y="889" width="5" height="8"/>
  <object id="432" x="1209" y="856" width="13" height="4"/>
  <object id="433" x="1227" y="856" width="13" height="4"/>
  <object id="434" x="1227" y="850" width="3" height="4"/>
  <object id="435" x="1230" y="851" width="3" height="3"/>
  <object id="436" x="1233" y="852" width="2" height="2"/>
  <object id="437" x="1235" y="853" width="2" height="1"/>
  <object id="438" x="1219" y="850" width="3" height="4"/>
  <object id="439" x="1216" y="851" width="3" height="3"/>
  <object id="440" x="1214" y="852" width="2" height="2"/>
  <object id="441" x="1212" y="853" width="2" height="1"/>
  <object id="442" x="921" y="87" width="5" height="8"/>
  <object id="443" x="928" y="87" width="5" height="8"/>
  <object id="444" x="928" y="98" width="5" height="8"/>
  <object id="445" x="921" y="98" width="5" height="8"/>
  <object id="446" x="921" y="109" width="5" height="8"/>
  <object id="447" x="928" y="109" width="5" height="8"/>
  <object id="448" x="940" y="87" width="5" height="8"/>
  <object id="449" x="947" y="87" width="5" height="8"/>
  <object id="450" x="947" y="98" width="5" height="8"/>
  <object id="451" x="940" y="98" width="5" height="8"/>
  <object id="452" x="940" y="109" width="5" height="8"/>
  <object id="453" x="947" y="109" width="5" height="8"/>
  <object id="454" x="921" y="76" width="13" height="4"/>
  <object id="455" x="939" y="76" width="13" height="4"/>
  <object id="456" x="939" y="70" width="3" height="4"/>
  <object id="457" x="942" y="71" width="3" height="3"/>
  <object id="458" x="945" y="72" width="2" height="2"/>
  <object id="459" x="947" y="73" width="2" height="1"/>
  <object id="460" x="931" y="70" width="3" height="4"/>
  <object id="461" x="928" y="71" width="3" height="3"/>
  <object id="462" x="926" y="72" width="2" height="2"/>
  <object id="463" x="924" y="73" width="2" height="1"/>
  <object id="464" x="1113" y="87" width="5" height="8"/>
  <object id="465" x="1120" y="87" width="5" height="8"/>
  <object id="466" x="1120" y="98" width="5" height="8"/>
  <object id="467" x="1113" y="98" width="5" height="8"/>
  <object id="468" x="1113" y="109" width="5" height="8"/>
  <object id="469" x="1120" y="109" width="5" height="8"/>
  <object id="470" x="1132" y="87" width="5" height="8"/>
  <object id="471" x="1139" y="87" width="5" height="8"/>
  <object id="472" x="1139" y="98" width="5" height="8"/>
  <object id="473" x="1132" y="98" width="5" height="8"/>
  <object id="474" x="1132" y="109" width="5" height="8"/>
  <object id="475" x="1139" y="109" width="5" height="8"/>
  <object id="476" x="1113" y="76" width="13" height="4"/>
  <object id="477" x="1131" y="76" width="13" height="4"/>
  <object id="478" x="1131" y="70" width="3" height="4"/>
  <object id="479" x="1134" y="71" width="3" height="3"/>
  <object id="480" x="1137" y="72" width="2" height="2"/>
  <object id="481" x="1139" y="73" width="2" height="1"/>
  <object id="482" x="1123" y="70" width="3" height="4"/>
  <object id="483" x="1120" y="71" width="3" height="3"/>
  <object id="484" x="1118" y="72" width="2" height="2"/>
  <object id="485" x="1116" y="73" width="2" height="1"/>
  <object id="486" x="1305" y="87" width="5" height="8"/>
  <object id="487" x="1312" y="87" width="5" height="8"/>
  <object id="488" x="1312" y="98" width="5" height="8"/>
  <object id="489" x="1305" y="98" width="5" height="8"/>
  <object id="490" x="1305" y="109" width="5" height="8"/>
  <object id="491" x="1312" y="109" width="5" height="8"/>
  <object id="492" x="1324" y="87" width="5" height="8"/>
  <object id="493" x="1331" y="87" width="5" height="8"/>
  <object id="494" x="1331" y="98" width="5" height="8"/>
  <object id="495" x="1324" y="98" width="5" height="8"/>
  <object id="496" x="1324" y="109" width="5" height="8"/>
  <object id="497" x="1331" y="109" width="5" height="8"/>
  <object id="498" x="1305" y="76" width="13" height="4"/>
  <object id="499" x="1323" y="76" width="13" height="4"/>
  <object id="500" x="1323" y="70" width="3" height="4"/>
  <object id="501" x="1326" y="71" width="3" height="3"/>
  <object id="502" x="1329" y="72" width="2" height="2"/>
  <object id="503" x="1331" y="73" width="2" height="1"/>
  <object id="504" x="1315" y="70" width="3" height="4"/>
  <object id="505" x="1312" y="71" width="3" height="3"/>
  <object id="506" x="1310" y="72" width="2" height="2"/>
  <object id="507" x="1308" y="73" width="2" height="1"/>
 </objectgroup>
</map>
