<?xml version="1.0" encoding="UTF-8"?>
<map version="1.10" tiledversion="1.12.2" orientation="orthogonal" renderorder="right-down" width="24" height="20" tilewidth="48" tileheight="48" infinite="0" nextlayerid="9" nextobjectid="428">
 <properties>
  <property name="level_type" value="outdoor"/>
 </properties>
 <tileset firstgid="1" source="tilesets/Outside_A2.tsx"/>
 <tileset firstgid="225" source="tilesets/Outside_B.tsx"/>
 <layer id="1" name="background" width="24" height="20">
  <data encoding="csv">
215,215,215,215,215,215,215,215,215,215,215,215,215,215,215,215,215,215,215,215,215,215,215,215,
215,215,215,215,215,215,215,215,215,215,215,215,215,215,215,215,215,215,215,215,215,215,215,215,
215,215,215,215,215,215,215,215,215,215,215,215,215,215,215,215,215,215,215,215,215,215,215,215,
215,215,215,215,215,215,215,215,215,215,215,215,215,215,215,215,215,215,215,215,215,215,215,215,
215,215,215,215,215,215,215,215,215,215,215,215,215,215,215,215,215,215,215,215,215,215,215,215,
215,215,215,215,215,215,215,215,215,215,215,215,215,215,215,215,215,215,215,215,215,215,215,215,
215,215,215,215,215,215,215,215,215,215,215,215,215,215,215,215,215,215,215,215,215,215,215,215,
215,215,215,215,215,215,215,215,215,215,215,215,215,215,215,215,215,215,215,215,215,215,215,215,
215,215,215,215,215,215,215,215,215,215,215,215,215,215,215,215,215,215,215,215,215,215,215,215,
215,215,215,215,215,215,215,215,215,215,215,215,215,215,215,215,215,215,215,215,215,215,215,215,
215,215,215,215,215,215,215,215,215,215,215,215,215,215,215,215,215,215,215,215,215,215,215,215,
215,215,215,215,215,215,215,215,215,215,215,215,215,215,215,215,215,215,215,215,215,215,215,215,
215,215,215,215,215,215,215,215,215,215,215,215,215,215,215,215,215,215,215,215,215,215,215,215,
215,215,215,215,215,215,215,215,215,215,215,215,215,215,215,215,215,215,215,215,215,215,215,215,
215,215,215,215,215,215,215,215,215,215,215,215,215,215,215,215,215,215,215,215,215,215,215,215,
193,193,193,193,193,193,193,20,215,215,215,215,215,215,215,215,215,215,215,215,215,215,215,215,
210,210,210,210,210,210,210,195,215,215,215,215,215,215,215,215,215,215,215,215,215,215,215,215,
209,209,209,209,209,209,209,36,215,215,215,215,215,215,215,215,215,215,215,215,215,215,215,215,
215,215,215,215,215,215,215,215,215,215,215,215,215,215,215,215,215,215,215,215,215,215,215,215,
215,215,215,215,215,215,215,215,215,215,215,215,215,215,215,215,215,215,215,215,215,215,215,215
</data>
 </layer>
 <layer id="2" name="decoration" width="24" height="20">
  <data encoding="csv">
407,407,407,407,407,407,407,407,407,407,407,407,407,407,407,407,407,407,407,407,407,407,407,407,
407,407,407,407,407,0,0,0,0,0,0,0,0,0,0,0,0,0,0,407,407,407,407,407,
407,407,407,0,0,0,0,0,0,401,0,0,0,402,0,0,0,0,0,0,0,407,407,407,
407,407,0,0,0,402,0,0,0,0,0,0,0,0,0,0,0,0,0,401,0,0,407,407,
407,407,0,417,0,0,0,0,0,0,402,0,0,404,0,0,0,0,0,0,402,0,407,407,
407,0,0,401,0,0,0,0,420,0,0,0,0,0,0,0,0,0,0,420,0,0,0,407,
407,0,0,0,0,0,0,0,0,0,0,0,0,0,0,0,0,402,0,0,0,0,0,407,
407,0,0,403,0,0,0,0,0,0,436,0,0,0,0,0,0,0,0,0,0,0,0,407,
0,0,419,0,0,0,0,403,419,0,0,0,0,0,0,0,0,419,0,0,0,0,0,407,
0,0,402,0,0,0,0,0,0,0,0,0,0,0,0,0,0,0,0,0,420,0,0,407,
0,0,404,0,0,404,417,0,0,401,0,0,0,0,0,0,0,0,0,0,0,417,0,407,
0,0,0,0,0,0,0,0,0,0,0,0,0,0,0,0,0,0,0,0,0,0,0,407,
0,404,0,0,0,417,0,0,0,0,0,0,0,0,0,0,0,0,0,0,0,0,0,407,
0,0,0,0,0,0,418,0,0,0,0,0,0,0,0,0,0,0,0,0,0,0,0,407,
419,0,0,420,0,0,0,436,0,0,0,0,0,0,0,0,0,0,0,0,0,0,0,407,
0,0,0,0,436,0,0,0,0,0,0,0,0,0,0,0,0,0,0,401,0,0,407,407,
0,0,0,0,0,0,0,0,0,0,0,0,0,0,0,403,0,420,0,403,0,0,407,407,
0,0,0,0,0,0,0,373,0,0,0,0,436,0,401,0,0,0,0,0,0,407,407,407,
404,0,0,403,0,401,0,0,0,0,0,0,0,0,0,0,0,0,0,407,407,407,407,407,
0,0,402,0,418,0,0,404,0,0,0,0,417,0,0,0,407,407,407,407,407,407,407,407
</data>
 </layer>
 <objectgroup id="7" name="collision">
  <object id="191" x="0" y="960" width="1152" height="48"/>
  <object id="192" x="-48" y="0" width="48" height="624"/>
  <object id="194" x="0" y="-48" width="1152" height="48"/>
  <object id="195" x="1152" y="0" width="48" height="960"/>
  <object id="196" x="12" y="396" width="24" height="36"/>
  <object id="197" x="0" y="0" width="48" height="408"/>
  <object id="199" x="60" y="264" width="24" height="24"/>
  <object id="200" x="48" y="0" width="48" height="264"/>
  <object id="201" x="108" y="168" width="24" height="24"/>
  <object id="202" x="96" y="0" width="48" height="168"/>
  <object id="203" x="156" y="120" width="24" height="24"/>
  <object id="204" x="144" y="0" width="48" height="120"/>
  <object id="205" x="204" y="120" width="24" height="24"/>
  <object id="206" x="192" y="0" width="48" height="120"/>
  <object id="208" x="252" y="72" width="24" height="24"/>
  <object id="209" x="240" y="0" width="48" height="72"/>
  <object id="214" x="300" y="72" width="24" height="24"/>
  <object id="215" x="288" y="0" width="48" height="72"/>
  <object id="216" x="348" y="72" width="24" height="24"/>
  <object id="217" x="336" y="0" width="48" height="72"/>
  <object id="218" x="396" y="72" width="24" height="24"/>
  <object id="219" x="384" y="0" width="48" height="72"/>
  <object id="220" x="444" y="72" width="24" height="24"/>
  <object id="221" x="432" y="0" width="48" height="72"/>
  <object id="222" x="492" y="72" width="24" height="24"/>
  <object id="223" x="480" y="0" width="48" height="72"/>
  <object id="224" x="540" y="72" width="24" height="24"/>
  <object id="225" x="528" y="0" width="48" height="72"/>
  <object id="226" x="588" y="72" width="24" height="24"/>
  <object id="227" x="576" y="0" width="48" height="72"/>
  <object id="228" x="636" y="72" width="24" height="24"/>
  <object id="229" x="624" y="0" width="48" height="72"/>
  <object id="230" x="684" y="72" width="24" height="24"/>
  <object id="231" x="672" y="0" width="48" height="72"/>
  <object id="232" x="732" y="72" width="24" height="24"/>
  <object id="233" x="720" y="0" width="48" height="72"/>
  <object id="234" x="780" y="72" width="24" height="24"/>
  <object id="235" x="768" y="0" width="48" height="72"/>
  <object id="236" x="828" y="72" width="24" height="24"/>
  <object id="237" x="816" y="0" width="48" height="72"/>
  <object id="238" x="876" y="72" width="24" height="24"/>
  <object id="239" x="864" y="0" width="48" height="72"/>
  <object id="240" x="924" y="120" width="24" height="24"/>
  <object id="241" x="912" y="0" width="48" height="120"/>
  <object id="242" x="972" y="120" width="24" height="24"/>
  <object id="243" x="960" y="0" width="48" height="120"/>
  <object id="244" x="1020" y="168" width="24" height="24"/>
  <object id="245" x="1008" y="0" width="48" height="168"/>
  <object id="246" x="1068" y="264" width="24" height="24"/>
  <object id="247" x="1056" y="0" width="48" height="264"/>
  <object id="248" x="1104" y="0" width="48" height="960"/>
  <object id="249" x="1056" y="696" width="48" height="264"/>
  <object id="250" x="1008" y="792" width="48" height="168"/>
  <object id="251" x="912" y="840" width="96" height="120"/>
  <object id="252" x="768" y="888" width="144" height="72"/>
  <object id="253" x="624" y="936" width="144" height="24"/>
  <object id="255" x="308" y="718" width="8" height="25"/>
  <object id="256" x="294" y="721" width="36" height="11"/>
  <object id="257" x="473" y="819" width="15" height="18"/>
  <object id="258" x="479" y="814" width="15" height="17"/>
  <object id="259" x="487" y="807" width="15" height="17"/>
  <object id="260" x="496" y="799" width="14" height="16"/>
  <object id="261" x="504" y="816" width="10" height="6"/>
  <object id="262" x="821" y="688" width="38" height="30"/>
  <object id="263" x="354" y="597" width="36" height="16"/>
  <object id="264" x="630" y="451" width="35" height="17"/>
  <object id="265" x="577" y="450" width="46" height="28"/>
  <object id="266" x="324" y="228" width="24" height="12"/>
  <object id="267" x="288" y="192" width="96" height="36"/>
  <object id="268" x="300" y="168" width="72" height="24"/>
  <object id="269" x="420" y="228" width="24" height="12"/>
  <object id="270" x="384" y="192" width="96" height="36"/>
  <object id="271" x="396" y="168" width="72" height="24"/>
  <object id="272" x="564" y="180" width="24" height="12"/>
  <object id="273" x="528" y="144" width="96" height="36"/>
  <object id="274" x="540" y="120" width="72" height="24"/>
  <object id="275" x="708" y="216" width="24" height="12"/>
  <object id="276" x="672" y="180" width="96" height="36"/>
  <object id="277" x="684" y="156" width="72" height="24"/>
  <object id="278" x="804" y="228" width="24" height="12"/>
  <object id="279" x="768" y="192" width="96" height="36"/>
  <object id="280" x="780" y="168" width="72" height="24"/>
  <object id="281" x="948" y="372" width="24" height="12"/>
  <object id="282" x="912" y="336" width="96" height="36"/>
  <object id="283" x="924" y="312" width="72" height="24"/>
  <object id="284" x="996" y="612" width="24" height="12"/>
  <object id="285" x="960" y="576" width="96" height="36"/>
  <object id="286" x="972" y="552" width="72" height="24"/>
  <object id="287" x="804" y="564" width="24" height="12"/>
  <object id="288" x="768" y="528" width="96" height="36"/>
  <object id="289" x="780" y="504" width="72" height="24"/>
  <object id="290" x="900" y="660" width="24" height="12"/>
  <object id="291" x="864" y="624" width="96" height="36"/>
  <object id="292" x="876" y="600" width="72" height="24"/>
  <object id="293" x="756" y="708" width="24" height="12"/>
  <object id="294" x="720" y="672" width="96" height="36"/>
  <object id="295" x="732" y="648" width="72" height="24"/>
  <object id="296" x="564" y="756" width="24" height="12"/>
  <object id="297" x="528" y="720" width="96" height="36"/>
  <object id="298" x="540" y="696" width="72" height="24"/>
  <object id="300" x="988" y="729" width="40" height="24"/>
  <object id="402" x="1048" y="405" width="40" height="24"/>
  <object id="403" x="1048" y="345" width="40" height="24"/>
  <object id="404" x="1024" y="296" width="40" height="24"/>
  <object id="405" x="784" y="117" width="40" height="24"/>
  <object id="406" x="736" y="117" width="40" height="24"/>
  <object id="407" x="832" y="117" width="40" height="24"/>
  <object id="408" x="196" y="501" width="40" height="24"/>
  <object id="409" x="244" y="453" width="40" height="24"/>
  <object id="410" x="292" y="453" width="40" height="24"/>
  <object id="411" x="156" y="504" width="24" height="24"/>
  <object id="412" x="144" y="408" width="48" height="96"/>
  <object id="413" x="204" y="456" width="24" height="24"/>
  <object id="414" x="252" y="408" width="24" height="24"/>
  <object id="415" x="300" y="408" width="24" height="24"/>
  <object id="416" x="192" y="360" width="48" height="96"/>
  <object id="417" x="240" y="360" width="48" height="48"/>
  <object id="418" x="288" y="360" width="48" height="48"/>
  <object id="420" x="588" y="312" width="24" height="24"/>
  <object id="421" x="636" y="312" width="24" height="24"/>
  <object id="422" x="684" y="312" width="24" height="24"/>
  <object id="423" x="732" y="360" width="24" height="24"/>
  <object id="424" x="720" y="264" width="48" height="96"/>
  <object id="425" x="576" y="264" width="144" height="48"/>
 </objectgroup>
 <objectgroup id="8" name="triggers">
  <object id="189" name="level_trigger" x="-48" y="624" width="48" height="336">
   <properties>
    <property name="level" value="newworld"/>
   </properties>
  </object>
  <object id="190" name="player_spawn" x="3" y="730" width="48" height="72">
   <properties>
    <property name="level" value="newworld"/>
   </properties>
  </object>
  <object id="426" name="npc_spawn" x="432" y="192" width="48" height="72">
   <properties>
    <property name="direction" value="up"/>
    <property name="npc_id" value="elara"/>
    <property name="spawn_id" value="elara_quest_woods"/>
   </properties>
  </object>
  <object id="427" name="npc_spawn" x="600" y="444" width="48" height="72">
   <properties>
    <property name="direction" value="down"/>
    <property name="npc_id" value="deserter"/>
    <property name="spawn_id" value="deserter_quest"/>
   </properties>
  </object>
 </objectgroup>
 <objectgroup id="3" name="renderables">
  <object id="8" gid="422" x="0" y="432" width="48" height="48"/>
  <object id="9" gid="422" x="48" y="288" width="48" height="48"/>
  <object id="10" gid="422" x="96" y="192" width="48" height="48"/>
  <object id="11" gid="422" x="144" y="144" width="48" height="48"/>
  <object id="12" gid="422" x="192" y="144" width="48" height="48"/>
  <object id="13" gid="422" x="240" y="96" width="48" height="48"/>
  <object id="14" gid="422" x="288" y="96" width="48" height="48"/>
  <object id="15" gid="422" x="336" y="96" width="48" height="48"/>
  <object id="16" gid="422" x="384" y="96" width="48" height="48"/>
  <object id="17" gid="422" x="432" y="96" width="48" height="48"/>
  <object id="18" gid="422" x="480" y="96" width="48" height="48"/>
  <object id="19" gid="422" x="528" y="96" width="48" height="48"/>
  <object id="20" gid="422" x="576" y="96" width="48" height="48"/>
  <object id="21" gid="422" x="624" y="96" width="48" height="48"/>
  <object id="22" gid="422" x="672" y="96" width="48" height="48"/>
  <object id="23" gid="422" x="720" y="96" width="48" height="48"/>
  <object id="24" gid="422" x="768" y="96" width="48" height="48"/>
  <object id="25" gid="422" x="816" y="96" width="48" height="48"/>
  <object id="26" gid="422" x="864" y="96" width="48" height="48"/>
  <object id="27" gid="422" x="912" y="144" width="48" height="48"/>
  <object id="28" gid="422" x="960" y="144" width="48" height="48"/>
  <object id="29" gid="422" x="1008" y="192" width="48" height="48"/>
  <object id="30" gid="422" x="1056" y="288" width="48" height="48"/>
  <object id="31" gid="406" x="768" y="912" width="48" height="48"/>
  <object id="33" gid="406" x="816" y="912" width="48" height="48"/>
  <object id="34" gid="406" x="864" y="912" width="48" height="48"/>
  <object id="35" gid="406" x="912" y="864" width="48" height="48"/>
  <object id="36" gid="406" x="960" y="864" width="48" height="48"/>
  <object id="37" gid="406" x="1008" y="816" width="48" height="48"/>
  <object id="38" gid="406" x="1056" y="720" width="48" height="48"/>
  <object id="39" gid="406" x="720" y="960" width="48" height="48"/>
  <object id="40" gid="406" x="672" y="960" width="48" height="48"/>
  <object id="41" gid="406" x="624" y="960" width="48" height="48"/>
  <object id="42" gid="422" x="144" y="528" width="48" height="48"/>
  <object id="43" gid="422" x="192" y="480" width="48" height="48"/>
  <object id="44" gid="422" x="240" y="432" width="48" height="48"/>
  <object id="45" gid="422" x="288" y="432" width="48" height="48"/>
  <object id="46" gid="407" x="192" y="432" width="48" height="48"/>
  <object id="50" gid="407" x="144" y="480" width="48" height="48"/>
  <object id="51" gid="406" x="144" y="432" width="48" height="48"/>
  <object id="52" gid="406" x="192" y="384" width="48" height="48"/>
  <object id="53" gid="406" x="240" y="384" width="48" height="48"/>
  <object id="54" gid="406" x="288" y="384" width="48" height="48"/>
  <object id="55" gid="423" x="192" y="528" width="48" height="48"/>
  <object id="56" gid="423" x="240" y="480" width="48" height="48"/>
  <object id="57" gid="423" x="288" y="480" width="48" height="48"/>
  <object id="121" gid="423" x="1020" y="324" width="48" height="48"/>
  <object id="122" gid="423" x="1044" y="372" width="48" height="48"/>
  <object id="123" gid="423" x="1044" y="432" width="48" height="48"/>
  <object id="124" gid="423" x="732" y="144" width="48" height="48"/>
  <object id="125" gid="423" x="828" y="144" width="48" height="48"/>
  <object id="126" gid="423" x="780" y="144" width="48" height="48"/>
  <object id="127" gid="423" x="984" y="756" width="48" height="48"/>
  <object id="128" gid="370" x="288" y="744" width="48" height="48"/>
  <object id="129" gid="421" x="468" y="840" width="48" height="48"/>
  <object id="130" gid="405" x="348" y="624" width="48" height="48"/>
  <object id="131" gid="435" x="816" y="720" width="48" height="48"/>
  <object id="132" gid="388" x="576" y="480" width="48" height="48"/>
  <object id="133" gid="405" x="624" y="480" width="48" height="48"/>
  <object id="134" gid="465" x="528" y="768" width="48" height="48"/>
  <object id="135" gid="466" x="576" y="768" width="48" height="48"/>
  <object id="136" gid="449" x="528" y="720" width="48" height="48"/>
  <object id="137" gid="450" x="576" y="720" width="48" height="48"/>
  <object id="138" gid="465" x="720" y="720" width="48" height="48"/>
  <object id="139" gid="465" x="864" y="672" width="48" height="48"/>
  <object id="140" gid="465" x="960" y="624" width="48" height="48"/>
  <object id="141" gid="465" x="768" y="576" width="48" height="48"/>
  <object id="142" gid="466" x="768" y="720" width="48" height="48"/>
  <object id="143" gid="466" x="912" y="672" width="48" height="48"/>
  <object id="144" gid="466" x="1008" y="624" width="48" height="48"/>
  <object id="145" gid="466" x="816" y="576" width="48" height="48"/>
  <object id="146" gid="449" x="720" y="672" width="48" height="48"/>
  <object id="147" gid="449" x="768" y="528" width="48" height="48"/>
  <object id="148" gid="449" x="864" y="624" width="48" height="48"/>
  <object id="149" gid="449" x="960" y="576" width="48" height="48"/>
  <object id="150" gid="450" x="768" y="672" width="48" height="48"/>
  <object id="151" gid="450" x="912" y="624" width="48" height="48"/>
  <object id="152" gid="450" x="1008" y="576" width="48" height="48"/>
  <object id="153" gid="450" x="816" y="528" width="48" height="48"/>
  <object id="154" gid="465" x="912" y="384" width="48" height="48"/>
  <object id="155" gid="465" x="768" y="240" width="48" height="48"/>
  <object id="156" gid="465" x="672" y="228" width="48" height="48"/>
  <object id="157" gid="465" x="528" y="192" width="48" height="48"/>
  <object id="158" gid="465" x="384" y="240" width="48" height="48"/>
  <object id="159" gid="465" x="288" y="240" width="48" height="48"/>
  <object id="160" gid="466" x="336" y="240" width="48" height="48"/>
  <object id="161" gid="466" x="432" y="240" width="48" height="48"/>
  <object id="162" gid="466" x="576" y="192" width="48" height="48"/>
  <object id="163" gid="466" x="720" y="228" width="48" height="48"/>
  <object id="164" gid="466" x="816" y="240" width="48" height="48"/>
  <object id="165" gid="466" x="960" y="384" width="48" height="48"/>
  <object id="166" gid="449" x="288" y="192" width="48" height="48"/>
  <object id="167" gid="449" x="384" y="192" width="48" height="48"/>
  <object id="168" gid="449" x="528" y="144" width="48" height="48"/>
  <object id="169" gid="449" x="672" y="180" width="48" height="48"/>
  <object id="170" gid="449" x="768" y="192" width="48" height="48"/>
  <object id="171" gid="449" x="912" y="336" width="48" height="48"/>
  <object id="172" gid="450" x="960" y="336" width="48" height="48"/>
  <object id="173" gid="450" x="816" y="192" width="48" height="48"/>
  <object id="174" gid="450" x="720" y="180" width="48" height="48"/>
  <object id="175" gid="450" x="576" y="144" width="48" height="48"/>
  <object id="176" gid="450" x="432" y="192" width="48" height="48"/>
  <object id="177" gid="450" x="336" y="192" width="48" height="48"/>
  <object id="178" gid="422" x="576" y="336" width="48" height="48"/>
  <object id="179" gid="422" x="624" y="336" width="48" height="48"/>
  <object id="180" gid="422" x="672" y="336" width="48" height="48"/>
  <object id="181" gid="422" x="720" y="384" width="48" height="48"/>
  <object id="182" gid="407" x="720" y="336" width="48" height="48"/>
  <object id="183" gid="406" x="576" y="288" width="48" height="48"/>
  <object id="184" gid="406" x="624" y="288" width="48" height="48"/>
  <object id="185" gid="406" x="672" y="288" width="48" height="48"/>
  <object id="186" gid="406" x="720" y="288" width="48" height="48"/>
 </objectgroup>
</map>
